;FLAVOR:Marlin
M117 Time Left 0h07m59s
;TIME:479
;Filament used: 0.0508934m
;Layer height: 0.12
;MINX:103.011
;MINY:103.011
;MINZ:0.12
;MAXX:131.989
;MAXY:131.989
;MAXZ:4.2
;POSTPROCESSED
;Generated with Cura_SteamEngine 4.8.0
M140 S60
M105
M190 S60
M104 S205
M105
M109 S205
M82 ;absolute extrusion mode
; Ender 3 Custom Start G-code
G92 E0 ; Reset Extruder
G28 ; Home all axes
; ***SET NEW E STEP *** (93 is factory value - 95 mine - start)
G90                          ; Force coordinates to be absolute relative to the origin
M92 E95 ;					 ; ***SET NEW E STEP *** (93 is factory value - 95 mine - end)
G90                          ; Force coordinates to be absolute relative to the origin
G28                          ; Home X/Y/Z axis
G92 E0 ; Reset Extruder
G28 ; Home all axes
G1 Z2.0 F3000 ; Move Z Axis up little to prevent scratching of Heat Bed
G1 X0.1 Y20 Z0.3 F5000.0 ; Move to start position
G1 X0.1 Y200.0 Z0.3 F1500.0 E15 ; Draw the first line
G1 X0.4 Y200.0 Z0.3 F5000.0 ; Move to side a little
G1 X0.4 Y20 Z0.3 F1500.0 E30 ; Draw the second line
G92 E0 ; Reset Extruder
G1 Z2.0 F3000 ; Move Z Axis up little to prevent scratching of Heat Bed
G1 X5 Y20 Z0.3 F5000.0 ; Move over to prevent blob squish
G92 E0
G92 E0
G1 F2700 E-5
;LAYER_COUNT:35
;LAYER:0
M107
G0 F6000 X107.236 Y107.274 Z0.12
;TYPE:SKIRT
G1 F2700 E0
G1 F1200 X107.44 Y107.073 E0.00572
G1 X108.084 Y106.487 E0.02309
G1 X108.278 Y106.324 E0.02815
G1 X109.005 Y105.763 E0.04647
G1 X109.254 Y105.587 E0.05256
G1 X109.968 Y105.123 E0.06955
G1 X110.191 Y104.99 E0.07473
G1 X110.94 Y104.582 E0.09175
G1 X111.18 Y104.463 E0.0971
G1 X111.912 Y104.133 E0.11312
G1 X112.167 Y104.029 E0.11862
G1 X113.016 Y103.722 E0.13664
G1 X113.27 Y103.642 E0.14195
G1 X114.058 Y103.426 E0.15826
G1 X114.326 Y103.363 E0.16375
G1 X115.282 Y103.182 E0.18317
G1 X115.568 Y103.141 E0.18893
G1 X116.365 Y103.057 E0.20492
G1 X116.638 Y103.038 E0.21039
G1 X117.402 Y103.011 E0.22564
G1 X117.605 Y103.011 E0.22969
G1 X118.346 Y103.036 E0.24449
G1 X118.583 Y103.052 E0.24923
G1 X119.377 Y103.135 E0.26516
G1 X119.675 Y103.177 E0.27117
G1 X120.163 Y103.256 E0.28103
G1 X120.793 Y103.39 E0.29389
G1 X121.044 Y103.451 E0.29904
G1 X121.832 Y103.674 E0.31538
G1 X122.07 Y103.751 E0.32038
G1 X122.745 Y103.994 E0.33469
G1 X122.959 Y104.079 E0.33929
G1 X123.731 Y104.42 E0.35613
G1 X124.005 Y104.554 E0.36222
G1 X124.53 Y104.829 E0.37404
G1 X124.965 Y105.082 E0.38409
G1 X125.143 Y105.191 E0.38825
G1 X125.701 Y105.557 E0.40157
G1 X125.917 Y105.708 E0.40683
G1 X126.334 Y106.013 E0.41714
G1 X126.404 Y106.067 E0.4189
G1 X126.92 Y106.491 E0.43223
G1 X127.125 Y106.67 E0.43766
G1 X127.726 Y107.237 E0.45415
G1 X127.924 Y107.438 E0.45978
G1 X128.467 Y108.03 E0.47581
G1 X128.615 Y108.204 E0.48037
G1 X129.134 Y108.864 E0.49712
G1 X129.267 Y109.047 E0.50164
G1 X129.649 Y109.608 E0.51518
G1 X129.796 Y109.839 E0.52065
G1 X130.212 Y110.549 E0.53707
G1 X130.339 Y110.786 E0.54244
G1 X130.736 Y111.607 E0.56063
G1 X130.85 Y111.87 E0.56635
G1 X131.046 Y112.353 E0.57676
G1 X131.278 Y113.015 E0.59076
G1 X131.358 Y113.269 E0.59607
G1 X131.573 Y114.05 E0.61224
G1 X131.635 Y114.313 E0.61763
G1 X131.815 Y115.266 E0.63698
G1 X131.857 Y115.557 E0.64285
G1 X131.943 Y116.361 E0.65899
G1 X131.962 Y116.633 E0.66443
G1 X131.989 Y117.482 E0.68138
G1 X131.987 Y117.75 E0.68673
G1 X131.943 Y118.65 E0.70471
G1 X131.918 Y118.929 E0.7103
G1 X131.815 Y119.741 E0.72663
G1 X131.774 Y119.989 E0.73165
G1 X131.607 Y120.803 E0.74823
G1 X131.546 Y121.053 E0.75337
G1 X131.331 Y121.815 E0.76917
G1 X131.256 Y122.048 E0.77405
G1 X131.014 Y122.724 E0.78838
G1 X130.925 Y122.949 E0.79321
G1 X130.579 Y123.733 E0.81031
G1 X130.449 Y123.999 E0.81622
G1 X130.164 Y124.544 E0.82849
G1 X129.868 Y125.046 E0.84012
G1 X129.71 Y125.299 E0.84607
G1 X129.22 Y126.019 E0.86345
G1 X129.063 Y126.231 E0.86872
G1 X128.546 Y126.876 E0.88522
G1 X128.368 Y127.082 E0.89065
G1 X127.746 Y127.744 E0.90878
G1 X127.541 Y127.945 E0.91451
G1 X126.904 Y128.523 E0.93167
G1 X126.719 Y128.678 E0.93649
G1 X126.128 Y129.14 E0.95146
G1 X125.959 Y129.263 E0.95563
G1 X125.392 Y129.649 E0.96932
G1 X125.161 Y129.796 E0.97478
G1 X124.427 Y130.224 E0.99174
G1 X124.183 Y130.354 E0.99725
G1 X123.382 Y130.74 E1.015
G1 X123.128 Y130.85 E1.02052
G1 X122.706 Y131.023 E1.02962
G1 X122.628 Y131.053 E1.03129
G1 X121.984 Y131.278 E1.0449
G1 X121.73 Y131.358 E1.05022
G1 X120.942 Y131.574 E1.06652
G1 X120.674 Y131.637 E1.07202
G1 X119.718 Y131.818 E1.09144
G1 X119.432 Y131.859 E1.0972
G1 X118.635 Y131.943 E1.11319
G1 X118.362 Y131.962 E1.11866
G1 X117.598 Y131.989 E1.13391
G1 X117.395 Y131.989 E1.13796
G1 X116.657 Y131.964 E1.1527
G1 X116.419 Y131.948 E1.15746
G1 X115.617 Y131.865 E1.17355
G1 X115.32 Y131.823 E1.17954
G1 X114.837 Y131.744 E1.1893
G1 X114.207 Y131.61 E1.20216
G1 X113.956 Y131.549 E1.20731
G1 X113.165 Y131.325 E1.22372
G1 X112.918 Y131.245 E1.2289
G1 X112.205 Y130.986 E1.24404
G1 X111.996 Y130.902 E1.24853
G1 X111.267 Y130.578 E1.26445
G1 X110.997 Y130.446 E1.27045
G1 X110.47 Y130.171 E1.28231
G1 X109.936 Y129.857 E1.29467
G1 X109.676 Y129.694 E1.3008
G1 X109.023 Y129.251 E1.31654
G1 X108.859 Y129.131 E1.3206
G1 X108.463 Y128.828 E1.33055
G1 X108.085 Y128.513 E1.34037
G1 X107.883 Y128.337 E1.34572
G1 X107.274 Y127.764 E1.3624
G1 X107.072 Y127.559 E1.36815
G1 X106.494 Y126.925 E1.38527
G1 X106.339 Y126.741 E1.39007
G1 X105.818 Y126.071 E1.40701
G1 X105.688 Y125.89 E1.41145
G1 X105.328 Y125.357 E1.42429
G1 X105.19 Y125.139 E1.42944
G1 X104.774 Y124.423 E1.44596
G1 X104.642 Y124.175 E1.45157
G1 X104.25 Y123.359 E1.46964
G1 X104.141 Y123.106 E1.47513
G1 X103.954 Y122.646 E1.48504
G1 X103.722 Y121.984 E1.49904
G1 X103.642 Y121.73 E1.50436
G1 X103.426 Y120.942 E1.52066
G1 X103.363 Y120.674 E1.52615
G1 X103.201 Y119.842 E1.54307
G1 X103.17 Y119.642 E1.54711
G1 X103.085 Y118.953 E1.56096
G1 X103.06 Y118.678 E1.56647
G1 X103.025 Y118.15 E1.57703
G1 X103.021 Y118.056 E1.57891
G1 X103.011 Y117.588 E1.58825
G1 X103.011 Y117.385 E1.5923
G1 X103.039 Y116.598 E1.60802
G1 X103.057 Y116.347 E1.61304
G1 X103.144 Y115.545 E1.62914
G1 X103.184 Y115.271 E1.63467
G1 X103.256 Y114.837 E1.64344
G1 X103.39 Y114.207 E1.6563
G1 X103.451 Y113.956 E1.66145
G1 X103.674 Y113.168 E1.6778
G1 X103.822 Y112.718 E1.68725
G1 X103.84 Y112.666 E1.68835
G1 X104.094 Y112.003 E1.70252
G1 X104.173 Y111.815 E1.70659
G1 X104.444 Y111.22 E1.71963
G1 X104.566 Y110.972 E1.72515
G1 X104.79 Y110.541 E1.73484
G1 X105.092 Y110.018 E1.74689
G1 X105.207 Y109.831 E1.75127
G1 X105.588 Y109.253 E1.76509
G1 X105.746 Y109.029 E1.77056
G1 X106.094 Y108.562 E1.78218
G1 X106.491 Y108.08 E1.79464
G1 X106.67 Y107.875 E1.80008
G1 X107.236 Y107.274 E1.81655
G0 F6000 X107.516 Y107.559
G1 F1200 X107.72 Y107.358 E1.82227
G1 X108.341 Y106.793 E1.83902
G1 X108.535 Y106.63 E1.84408
G1 X109.236 Y106.09 E1.86174
G1 X109.485 Y105.914 E1.86782
G1 X110.173 Y105.466 E1.8842
G1 X110.396 Y105.333 E1.88939
G1 X111.117 Y104.94 E1.90577
G1 X111.357 Y104.821 E1.91112
G1 X112.063 Y104.503 E1.92657
G1 X112.318 Y104.399 E1.93207
G1 X113.137 Y104.104 E1.94944
G1 X113.391 Y104.024 E1.95475
G1 X114.149 Y103.815 E1.97044
G1 X114.417 Y103.752 E1.97594
G1 X115.339 Y103.578 E1.99466
G1 X115.625 Y103.537 E2.00043
G1 X116.393 Y103.456 E2.01584
G1 X116.666 Y103.437 E2.0213
G1 X117.402 Y103.411 E2.036
G1 X117.605 Y103.411 E2.04005
G1 X118.319 Y103.435 E2.05431
G1 X118.556 Y103.451 E2.05905
G1 X119.321 Y103.531 E2.0744
G1 X119.619 Y103.573 E2.0804
G1 X120.091 Y103.65 E2.08994
G1 X120.698 Y103.779 E2.10233
G1 X120.949 Y103.84 E2.10748
G1 X121.709 Y104.055 E2.12325
G1 X121.947 Y104.132 E2.12824
G1 X122.597 Y104.366 E2.14202
G1 X122.811 Y104.451 E2.14662
G1 X123.555 Y104.78 E2.16285
G1 X123.829 Y104.914 E2.16894
G1 X124.337 Y105.179 E2.18037
G1 X124.757 Y105.423 E2.19007
G1 X124.935 Y105.532 E2.19423
G1 X125.472 Y105.884 E2.20705
G1 X125.688 Y106.035 E2.21231
G1 X126.09 Y106.33 E2.22226
G1 X126.16 Y106.384 E2.22402
G1 X126.657 Y106.792 E2.23685
G1 X126.862 Y106.971 E2.24228
G1 X127.441 Y107.517 E2.25817
G1 X127.639 Y107.718 E2.2638
G1 X128.162 Y108.289 E2.27925
G1 X128.31 Y108.463 E2.28381
G1 X128.811 Y109.099 E2.29996
G1 X128.944 Y109.282 E2.30448
G1 X129.312 Y109.823 E2.31754
G1 X129.459 Y110.054 E2.323
G1 X129.859 Y110.738 E2.33881
G1 X129.986 Y110.975 E2.34418
G1 X130.369 Y111.766 E2.36172
G1 X130.483 Y112.029 E2.36744
G1 X130.673 Y112.497 E2.37752
G1 X130.896 Y113.136 E2.39102
G1 X130.976 Y113.39 E2.39634
G1 X131.183 Y114.142 E2.4119
G1 X131.245 Y114.405 E2.41729
G1 X131.419 Y115.323 E2.43594
G1 X131.461 Y115.614 E2.44181
G1 X131.544 Y116.389 E2.45736
G1 X131.563 Y116.661 E2.4628
G1 X131.589 Y117.479 E2.47914
G1 X131.587 Y117.747 E2.48448
G1 X131.545 Y118.614 E2.50181
G1 X131.52 Y118.893 E2.5074
G1 X131.42 Y119.676 E2.52315
G1 X131.379 Y119.924 E2.52817
G1 X131.219 Y120.708 E2.54413
G1 X131.158 Y120.958 E2.54927
G1 X130.95 Y121.693 E2.56451
G1 X130.875 Y121.926 E2.5694
G1 X130.642 Y122.577 E2.5832
G1 X130.553 Y122.802 E2.58802
G1 X130.22 Y123.557 E2.60449
G1 X130.09 Y123.823 E2.6104
G1 X129.815 Y124.348 E2.62223
G1 X129.529 Y124.834 E2.63348
G1 X129.371 Y125.087 E2.63943
G1 X128.898 Y125.78 E2.65618
G1 X128.741 Y125.992 E2.66144
G1 X128.244 Y126.614 E2.67733
G1 X128.066 Y126.82 E2.68276
G1 X127.466 Y127.459 E2.70026
G1 X127.261 Y127.66 E2.70598
G1 X126.648 Y128.216 E2.7225
G1 X126.463 Y128.371 E2.72732
G1 X125.893 Y128.816 E2.74175
G1 X125.724 Y128.939 E2.74592
G1 X125.177 Y129.312 E2.75913
G1 X124.946 Y129.459 E2.76459
G1 X124.239 Y129.871 E2.78092
G1 X123.995 Y130.001 E2.78644
G1 X123.223 Y130.373 E2.80354
G1 X122.969 Y130.483 E2.80907
G1 X122.484 Y130.679 E2.81951
G1 X121.863 Y130.896 E2.83263
G1 X121.609 Y130.976 E2.83795
G1 X120.851 Y131.185 E2.85364
G1 X120.583 Y131.248 E2.85913
G1 X119.661 Y131.422 E2.87786
G1 X119.375 Y131.463 E2.88362
G1 X118.607 Y131.544 E2.89903
G1 X118.334 Y131.563 E2.9045
G1 X117.598 Y131.589 E2.91919
G1 X117.395 Y131.589 E2.92324
G1 X116.684 Y131.565 E2.93744
G1 X116.446 Y131.549 E2.9422
G1 X115.673 Y131.469 E2.95771
G1 X115.376 Y131.427 E2.9637
G1 X114.909 Y131.35 E2.97314
G1 X114.302 Y131.221 E2.98552
G1 X114.051 Y131.16 E2.99068
G1 X113.288 Y130.944 E3.0065
G1 X113.041 Y130.864 E3.01169
G1 X112.354 Y130.615 E3.02627
G1 X112.145 Y130.531 E3.03076
G1 X111.442 Y130.219 E3.04611
G1 X111.172 Y130.087 E3.05211
G1 X110.663 Y129.821 E3.06357
G1 X110.149 Y129.518 E3.07548
G1 X109.889 Y129.355 E3.0816
G1 X109.26 Y128.929 E3.09676
G1 X109.096 Y128.809 E3.10082
G1 X108.712 Y128.515 E3.11047
G1 X108.348 Y128.211 E3.11993
G1 X108.146 Y128.035 E3.12528
G1 X107.559 Y127.483 E3.14136
G1 X107.357 Y127.278 E3.1471
G1 X106.8 Y126.667 E3.1636
G1 X106.645 Y126.483 E3.1684
G1 X106.143 Y125.838 E3.18471
G1 X106.013 Y125.657 E3.18916
G1 X105.666 Y125.143 E3.20154
G1 X105.528 Y124.925 E3.20669
G1 X105.127 Y124.235 E3.22261
G1 X104.995 Y123.987 E3.22822
G1 X104.617 Y123.201 E3.24562
G1 X104.508 Y122.948 E3.25112
G1 X104.327 Y122.502 E3.26073
G1 X104.104 Y121.863 E3.27423
G1 X104.024 Y121.609 E3.27955
G1 X103.815 Y120.851 E3.29524
G1 X103.752 Y120.583 E3.30073
G1 X103.596 Y119.781 E3.31704
G1 X103.565 Y119.581 E3.32108
G1 X103.484 Y118.917 E3.33442
G1 X103.459 Y118.642 E3.33994
G1 X103.425 Y118.133 E3.35012
G1 X103.421 Y118.039 E3.35199
G1 X103.411 Y117.588 E3.361
G1 X103.411 Y117.385 E3.36505
G1 X103.438 Y116.627 E3.38018
G1 X103.456 Y116.376 E3.3852
G1 X103.54 Y115.603 E3.40072
G1 X103.58 Y115.329 E3.40625
G1 X103.65 Y114.909 E3.41474
G1 X103.779 Y114.302 E3.42713
G1 X103.84 Y114.051 E3.43228
G1 X104.055 Y113.291 E3.44805
G1 X104.2 Y112.849 E3.45733
G1 X104.218 Y112.797 E3.45843
G1 X104.463 Y112.158 E3.47208
G1 X104.542 Y111.97 E3.47615
G1 X104.803 Y111.397 E3.48872
G1 X104.925 Y111.149 E3.49423
G1 X105.142 Y110.731 E3.50363
G1 X105.433 Y110.227 E3.51525
G1 X105.548 Y110.04 E3.51963
G1 X105.915 Y109.483 E3.53294
G1 X106.073 Y109.259 E3.53841
G1 X106.41 Y108.807 E3.54966
G1 X106.792 Y108.343 E3.56165
G1 X106.971 Y108.138 E3.56709
G1 X107.516 Y107.559 E3.58295
G0 F6000 X107.797 Y107.844
G1 F1200 X108.001 Y107.643 E3.58867
G1 X108.598 Y107.1 E3.60477
G1 X108.792 Y106.937 E3.60983
G1 X109.467 Y106.417 E3.62683
G1 X109.716 Y106.241 E3.63292
G1 X110.378 Y105.81 E3.64868
G1 X110.601 Y105.677 E3.65386
G1 X111.295 Y105.299 E3.66964
G1 X111.535 Y105.18 E3.67498
G1 X112.214 Y104.873 E3.68985
G1 X112.469 Y104.769 E3.69535
G1 X113.257 Y104.485 E3.71206
G1 X113.511 Y104.405 E3.71738
G1 X114.241 Y104.205 E3.73248
G1 X114.509 Y104.142 E3.73798
G1 X115.396 Y103.974 E3.75599
G1 X115.682 Y103.933 E3.76176
G1 X116.421 Y103.855 E3.77659
G1 X116.694 Y103.836 E3.78205
G1 X117.402 Y103.811 E3.79619
G1 X117.605 Y103.811 E3.80024
G1 X118.292 Y103.834 E3.81395
G1 X118.529 Y103.85 E3.8187
G1 X119.266 Y103.927 E3.83348
G1 X119.564 Y103.969 E3.83949
G1 X120.02 Y104.044 E3.84871
G1 X120.604 Y104.168 E3.86063
G1 X120.855 Y104.229 E3.86578
G1 X121.586 Y104.435 E3.88094
G1 X121.824 Y104.512 E3.88593
G1 X122.449 Y104.737 E3.89918
G1 X122.663 Y104.822 E3.90378
G1 X123.379 Y105.139 E3.91941
G1 X123.653 Y105.273 E3.92549
G1 X124.144 Y105.529 E3.93654
G1 X124.548 Y105.764 E3.94587
G1 X124.726 Y105.873 E3.95003
G1 X125.243 Y106.212 E3.96237
G1 X125.459 Y106.363 E3.96763
G1 X125.845 Y106.647 E3.9772
G1 X125.915 Y106.701 E3.97896
G1 X126.394 Y107.094 E3.99132
G1 X126.599 Y107.273 E3.99676
G1 X127.157 Y107.798 E4.01204
G1 X127.355 Y107.999 E4.01767
G1 X127.858 Y108.548 E4.03253
G1 X128.006 Y108.722 E4.03709
G1 X128.487 Y109.334 E4.05263
G1 X128.62 Y109.517 E4.05714
G1 X128.974 Y110.038 E4.06971
G1 X129.121 Y110.269 E4.07518
G1 X129.507 Y110.927 E4.0904
G1 X129.634 Y111.164 E4.09576
G1 X130.002 Y111.925 E4.11263
G1 X130.116 Y112.188 E4.11835
G1 X130.3 Y112.641 E4.12811
G1 X130.515 Y113.256 E4.14111
G1 X130.595 Y113.51 E4.14643
G1 X130.794 Y114.234 E4.16141
G1 X130.856 Y114.497 E4.1668
G1 X131.023 Y115.38 E4.18474
G1 X131.065 Y115.671 E4.1906
G1 X131.145 Y116.417 E4.20558
G1 X131.164 Y116.689 E4.21102
G1 X131.189 Y117.476 E4.22673
G1 X131.187 Y117.744 E4.23208
G1 X131.146 Y118.578 E4.24874
G1 X131.121 Y118.857 E4.25433
G1 X131.025 Y119.611 E4.2695
G1 X130.984 Y119.859 E4.27452
G1 X130.83 Y120.613 E4.28988
G1 X130.769 Y120.863 E4.29501
G1 X130.569 Y121.57 E4.30967
G1 X130.494 Y121.803 E4.31456
G1 X130.27 Y122.43 E4.32785
G1 X130.181 Y122.655 E4.33267
G1 X129.86 Y123.382 E4.34853
G1 X129.73 Y123.648 E4.35444
G1 X129.466 Y124.153 E4.36581
G1 X129.19 Y124.622 E4.37667
G1 X129.032 Y124.875 E4.38263
G1 X128.577 Y125.542 E4.39874
G1 X128.42 Y125.754 E4.404
G1 X127.941 Y126.353 E4.41931
G1 X127.763 Y126.559 E4.42474
G1 X127.186 Y127.173 E4.44156
G1 X126.981 Y127.374 E4.44729
G1 X126.391 Y127.91 E4.46319
G1 X126.206 Y128.065 E4.46801
G1 X125.657 Y128.493 E4.4819
G1 X125.488 Y128.616 E4.48607
G1 X124.962 Y128.974 E4.49877
G1 X124.731 Y129.121 E4.50423
G1 X124.051 Y129.518 E4.51995
G1 X123.807 Y129.648 E4.52546
G1 X123.065 Y130.006 E4.54191
G1 X122.811 Y130.116 E4.54743
G1 X122.419 Y130.276 E4.55588
G1 X122.341 Y130.306 E4.55755
G1 X121.743 Y130.515 E4.57019
G1 X121.489 Y130.595 E4.5755
G1 X120.759 Y130.795 E4.59061
G1 X120.491 Y130.858 E4.5961
G1 X119.604 Y131.026 E4.61412
G1 X119.318 Y131.067 E4.61988
G1 X118.579 Y131.145 E4.63471
G1 X118.306 Y131.164 E4.64017
G1 X117.598 Y131.189 E4.65431
G1 X117.395 Y131.189 E4.65836
G1 X116.711 Y131.166 E4.67202
G1 X116.473 Y131.15 E4.67678
G1 X115.729 Y131.073 E4.69171
G1 X115.432 Y131.031 E4.69769
G1 X114.98 Y130.956 E4.70684
G1 X114.396 Y130.832 E4.71875
G1 X114.145 Y130.771 E4.72391
G1 X113.411 Y130.564 E4.73912
G1 X113.164 Y130.484 E4.74431
G1 X112.503 Y130.244 E4.75834
G1 X112.294 Y130.16 E4.76283
G1 X111.618 Y129.86 E4.77759
G1 X111.348 Y129.728 E4.78359
G1 X110.856 Y129.471 E4.79467
G1 X110.361 Y129.179 E4.80614
G1 X110.101 Y129.016 E4.81226
G1 X109.496 Y128.606 E4.82685
G1 X109.332 Y128.486 E4.8309
G1 X108.961 Y128.202 E4.84022
G1 X108.61 Y127.909 E4.84935
G1 X108.408 Y127.733 E4.8547
G1 X107.844 Y127.202 E4.87015
G1 X107.642 Y126.997 E4.8759
G1 X107.106 Y126.409 E4.89178
G1 X106.951 Y126.225 E4.89658
G1 X106.467 Y125.604 E4.91229
G1 X106.337 Y125.423 E4.91674
