;FLAVOR:Marlin
M117 Time Left 0h31m29s
;TIME:1889
;Filament used: 0.1875m
;Layer height: 0.12
;MINX:95.011
;MINY:95.011
;MINZ:0.12
;MAXX:139.989
;MAXY:131.989
;MAXZ:4.2
;POSTPROCESSED
;Generated with Cura_SteamEngine 4.8.0
M140 S70
M105
M190 S70
M104 S230
M105
M109 S230
M82 ;absolute extrusion mode
; Ender 3 Custom Start G-code
G92 E0 ; Reset Extruder
G28 ; Home all axes
; ***SET NEW E STEP *** (93 is factory value - 95 mine - start)
G90                          ; Force coordinates to be absolute relative to the origin
M92 E95 ;					 ; ***SET NEW E STEP *** (93 is factory value - 95 mine - end)
G90                          ; Force coordinates to be absolute relative to the origin
G28                          ; Home X/Y/Z axis
G92 E0 ; Reset Extruder
G28 ; Home all axes
G1 Z2.0 F3000 ; Move Z Axis up little to prevent scratching of Heat Bed
G1 X0.1 Y20 Z0.3 F5000.0 ; Move to start position
G1 X0.1 Y200.0 Z0.3 F1500.0 E15 ; Draw the first line
G1 X0.4 Y200.0 Z0.3 F5000.0 ; Move to side a little
G1 X0.4 Y20 Z0.3 F1500.0 E30 ; Draw the second line
G92 E0 ; Reset Extruder
G1 Z2.0 F3000 ; Move Z Axis up little to prevent scratching of Heat Bed
G1 X5 Y20 Z0.3 F5000.0 ; Move over to prevent blob squish
G92 E0
G92 E0
G1 F2700 E-5
;LAYER_COUNT:35
;LAYER:0
M107
G0 F6000 X106.92 Y99.599 Z0.12
;TYPE:SKIRT
G1 F2700 E0
G1 F900 X107.324 Y99.186 E0.01153
G1 X107.519 Y98.997 E0.01695
G1 X108.164 Y98.42 E0.03422
G1 X108.355 Y98.262 E0.03917
G1 X109.005 Y97.764 E0.05551
G1 X109.242 Y97.596 E0.0613
G1 X109.968 Y97.123 E0.0786
G1 X110.191 Y96.99 E0.08378
G1 X110.94 Y96.582 E0.1008
G1 X111.18 Y96.463 E0.10614
G1 X111.912 Y96.133 E0.12217
G1 X112.167 Y96.029 E0.12766
G1 X113.016 Y95.722 E0.14568
G1 X113.27 Y95.642 E0.15099
G1 X114.058 Y95.426 E0.1673
G1 X114.326 Y95.363 E0.17279
G1 X115.282 Y95.182 E0.19221
G1 X115.568 Y95.141 E0.19798
G1 X116.365 Y95.057 E0.21397
G1 X116.638 Y95.038 E0.21943
G1 X117.402 Y95.011 E0.23469
G1 X117.605 Y95.011 E0.23874
G1 X118.346 Y95.036 E0.25353
G1 X118.583 Y95.052 E0.25827
G1 X119.377 Y95.135 E0.27421
G1 X119.675 Y95.177 E0.28021
G1 X120.163 Y95.256 E0.29008
G1 X120.793 Y95.39 E0.30293
G1 X121.044 Y95.451 E0.30808
G1 X121.832 Y95.674 E0.32443
G1 X122.07 Y95.751 E0.32942
G1 X122.745 Y95.994 E0.34374
G1 X122.959 Y96.079 E0.34833
G1 X123.731 Y96.42 E0.36517
G1 X124.005 Y96.554 E0.37126
G1 X124.544 Y96.837 E0.38341
G1 X125.055 Y97.138 E0.39524
G1 X125.317 Y97.302 E0.40141
G1 X126.025 Y97.785 E0.41852
G1 X126.229 Y97.936 E0.42358
G1 X126.92 Y98.491 E0.44127
G1 X127.125 Y98.67 E0.4467
G1 X127.694 Y99.204 E0.46227
G1 X127.841 Y99.352 E0.46643
G1 X128.046 Y99.564 E0.47232
G1 X128.327 Y99.863 E0.48051
G1 X130.028 Y101.704 E0.53053
G1 X131.778 Y103.495 E0.5805
G1 X133.579 Y105.236 E0.63049
G1 X134.23 Y105.827 E0.64803
G1 X134.408 Y106.003 E0.65303
G1 X135.374 Y106.894 E0.67926
G1 X135.839 Y107.35 E0.69225
G1 X136.02 Y107.538 E0.69746
G1 X136.571 Y108.155 E0.71397
G1 X136.758 Y108.381 E0.71982
G1 X137.296 Y109.088 E0.73755
G1 X137.452 Y109.311 E0.74298
G1 X137.924 Y110.044 E0.76038
G1 X138.055 Y110.267 E0.76554
G1 X138.447 Y110.998 E0.78209
G1 X138.571 Y111.251 E0.78772
G1 X138.921 Y112.041 E0.80496
G1 X139.024 Y112.301 E0.81054
G1 X139.333 Y113.191 E0.82934
G1 X139.414 Y113.461 E0.83497
G1 X139.608 Y114.198 E0.85018
G1 X139.662 Y114.437 E0.85507
G1 X139.809 Y115.219 E0.87095
G1 X139.841 Y115.431 E0.87522
G1 X139.925 Y116.153 E0.88973
G1 X139.948 Y116.427 E0.89522
G1 X139.977 Y116.868 E0.90404
G1 X139.989 Y117.563 E0.91791
G1 X139.985 Y117.846 E0.92356
G1 X139.94 Y118.691 E0.94044
G1 X139.916 Y118.954 E0.94571
G1 X139.8 Y119.834 E0.96343
G1 X139.753 Y120.105 E0.96892
G1 X139.583 Y120.905 E0.98524
G1 X139.457 Y121.394 E0.99531
G1 X139.436 Y121.469 E0.99687
G1 X139.258 Y122.042 E1.00884
G1 X139.17 Y122.301 E1.0143
G1 X138.829 Y123.179 E1.0331
G1 X138.715 Y123.439 E1.03876
G1 X138.353 Y124.188 E1.05536
G1 X138.228 Y124.423 E1.06068
G1 X137.793 Y125.167 E1.07787
G1 X137.635 Y125.415 E1.08374
G1 X137.122 Y126.152 E1.10166
G1 X136.965 Y126.359 E1.10685
G1 X136.431 Y127.01 E1.12365
G1 X136.251 Y127.213 E1.12906
G1 X135.65 Y127.839 E1.14638
G1 X135.462 Y128.02 E1.15159
G1 X134.845 Y128.571 E1.1681
G1 X134.619 Y128.758 E1.17395
G1 X133.899 Y129.306 E1.19201
G1 X133.671 Y129.465 E1.19756
G1 X132.949 Y129.928 E1.21467
G1 X132.731 Y130.056 E1.21972
G1 X132.1 Y130.399 E1.23405
G1 X131.899 Y130.5 E1.23854
G1 X131.293 Y130.782 E1.25188
G1 X130.917 Y130.938 E1.26
G1 X130.679 Y131.032 E1.26511
G1 X129.742 Y131.354 E1.28488
G1 X129.453 Y131.439 E1.29089
G1 X128.66 Y131.641 E1.30722
G1 X128.404 Y131.696 E1.31245
G1 X127.476 Y131.854 E1.33123
G1 X127.192 Y131.89 E1.33695
G1 X126.377 Y131.962 E1.35327
G1 X126.106 Y131.976 E1.35869
G1 X125.337 Y131.989 E1.37404
G1 X124.21 Y131.968 E1.39653
G1 X123.045 Y131.931 E1.41979
G1 X120.542 Y131.924 E1.46974
G1 X119.024 Y131.967 E1.50005
G1 X118.823 Y131.964 E1.50406
G1 X118.006 Y131.985 E1.52037
G1 X117.726 Y131.989 E1.52596
G1 X117.384 Y131.989 E1.53278
G1 X117.078 Y131.985 E1.53889
G1 X115.955 Y131.954 E1.56131
G1 X113.42 Y131.919 E1.6119
G1 X110.613 Y131.977 E1.66793
G1 X109.799 Y131.989 E1.68418
G1 X109.505 Y131.989 E1.69004
G1 X109.172 Y131.985 E1.69669
G1 X108.297 Y131.94 E1.71417
G1 X108.036 Y131.916 E1.7194
G1 X107.138 Y131.796 E1.73748
G1 X106.865 Y131.748 E1.74302
G1 X106.077 Y131.579 E1.7591
G1 X105.617 Y131.46 E1.76858
G1 X105.538 Y131.438 E1.77022
G1 X104.913 Y131.244 E1.78328
G1 X104.657 Y131.156 E1.78868
G1 X103.809 Y130.824 E1.80685
G1 X103.554 Y130.712 E1.81241
G1 X102.888 Y130.392 E1.82716
G1 X102.706 Y130.297 E1.83125
G1 X102.088 Y129.949 E1.84541
G1 X101.887 Y129.827 E1.8501
G1 X101.23 Y129.396 E1.86578
G1 X100.996 Y129.23 E1.87151
G1 X100.256 Y128.655 E1.89021
G1 X100.035 Y128.468 E1.89598
G1 X99.404 Y127.891 E1.91305
G1 X99.218 Y127.707 E1.91827
G1 X98.837 Y127.311 E1.92923
G1 X98.471 Y126.896 E1.94028
G1 X98.316 Y126.711 E1.94509
G1 X97.861 Y126.129 E1.95984
G1 X97.737 Y125.959 E1.96404
G1 X97.486 Y125.6 E1.97278
G1 X97.419 Y125.5 E1.97518
G1 X97.075 Y124.952 E1.98809
G1 X96.948 Y124.736 E1.99309
G1 X96.56 Y124.018 E2.00938
G1 X96.435 Y123.764 E2.01503
G1 X96.062 Y122.917 E2.0335
G1 X95.961 Y122.659 E2.03903
G1 X95.68 Y121.849 E2.05614
G1 X95.597 Y121.576 E2.06183
G1 X95.396 Y120.82 E2.07744
G1 X95.342 Y120.583 E2.08229
G1 X95.17 Y119.642 E2.10138
G1 X95.13 Y119.352 E2.10722
G1 X95.05 Y118.567 E2.12297
G1 X95.033 Y118.307 E2.12817
G1 X95.011 Y117.435 E2.14558
G1 X95.015 Y117.15 E2.15126
G1 X95.06 Y116.297 E2.16831
G1 X95.084 Y116.036 E2.17354
G1 X95.195 Y115.193 E2.19051
G1 X95.231 Y114.982 E2.19478
G1 X95.303 Y114.6 E2.20254
G1 X95.427 Y114.051 E2.21377
G1 X95.477 Y113.854 E2.21783
G1 X95.589 Y113.446 E2.22627
G1 X95.745 Y112.947 E2.2367
G1 X95.831 Y112.694 E2.24204
G1 X96.15 Y111.868 E2.25971
G1 X96.354 Y111.405 E2.2698
G1 X96.388 Y111.332 E2.27141
G1 X96.65 Y110.808 E2.2831
G1 X96.774 Y110.575 E2.28837
G1 X97.211 Y109.825 E2.30569
G1 X97.368 Y109.579 E2.31151
G1 X97.871 Y108.857 E2.32907
G1 X98.03 Y108.647 E2.33433
G1 X98.567 Y107.992 E2.35123
G1 X98.746 Y107.79 E2.35662
G1 X99.29 Y107.219 E2.37236
G1 X99.423 Y107.089 E2.37607
G1 X99.629 Y106.893 E2.38174
G1 X100.751 Y105.852 E2.41229
G1 X101.25 Y105.398 E2.42575
G1 X103.071 Y103.643 E2.47622
G1 X104.845 Y101.833 E2.5268
G1 X106.92 Y99.599 E2.58764
G0 F6000 X107.213 Y99.871
G1 F900 X107.603 Y99.473 E2.59876
G1 X107.798 Y99.284 E2.60418
G1 X108.419 Y98.728 E2.62082
G1 X108.61 Y98.57 E2.62576
G1 X109.236 Y98.09 E2.64151
G1 X109.473 Y97.922 E2.6473
G1 X110.173 Y97.466 E2.66398
G1 X110.396 Y97.333 E2.66916
G1 X111.117 Y96.94 E2.68554
G1 X111.357 Y96.821 E2.69089
G1 X112.063 Y96.503 E2.70634
G1 X112.318 Y96.399 E2.71184
G1 X113.137 Y96.104 E2.72921
G1 X113.391 Y96.024 E2.73452
G1 X114.149 Y95.815 E2.75022
G1 X114.417 Y95.752 E2.75571
G1 X115.339 Y95.578 E2.77443
G1 X115.625 Y95.537 E2.7802
G1 X116.393 Y95.456 E2.79561
G1 X116.666 Y95.437 E2.80107
G1 X117.402 Y95.411 E2.81577
G1 X117.605 Y95.411 E2.81982
G1 X118.319 Y95.435 E2.83408
G1 X118.556 Y95.451 E2.83882
G1 X119.321 Y95.531 E2.85417
G1 X119.619 Y95.573 E2.86017
G1 X120.091 Y95.65 E2.86972
G1 X120.698 Y95.779 E2.8821
G1 X120.949 Y95.84 E2.88725
G1 X121.709 Y96.055 E2.90302
G1 X121.947 Y96.132 E2.90801
G1 X122.597 Y96.366 E2.92179
G1 X122.811 Y96.451 E2.92639
G1 X123.555 Y96.78 E2.94262
G1 X123.829 Y96.914 E2.94871
G1 X124.35 Y97.187 E2.96045
G1 X124.843 Y97.477 E2.97186
G1 X125.105 Y97.641 E2.97803
G1 X125.787 Y98.106 E2.9945
G1 X125.991 Y98.257 E2.99957
G1 X126.657 Y98.792 E3.01662
G1 X126.862 Y98.971 E3.02205
G1 X127.411 Y99.486 E3.03707
G1 X127.558 Y99.634 E3.04123
G1 X127.755 Y99.838 E3.04689
G1 X128.033 Y100.134 E3.055
G1 X129.731 Y101.972 E3.10493
G1 X131.496 Y103.779 E3.15534
G1 X133.315 Y105.536 E3.20581
G1 X133.961 Y106.123 E3.22323
G1 X134.147 Y106.307 E3.22845
G1 X135.102 Y107.188 E3.25438
G1 X135.551 Y107.627 E3.26691
G1 X135.732 Y107.815 E3.27212
G1 X136.263 Y108.41 E3.28803
G1 X136.45 Y108.636 E3.29389
G1 X136.969 Y109.317 E3.31097
G1 X137.125 Y109.54 E3.3164
G1 X137.579 Y110.247 E3.33317
G1 X137.71 Y110.47 E3.33833
G1 X138.088 Y111.174 E3.35428
G1 X138.212 Y111.427 E3.3599
G1 X138.549 Y112.188 E3.37651
G1 X138.652 Y112.448 E3.38209
G1 X138.95 Y113.306 E3.40022
G1 X139.031 Y113.576 E3.40584
G1 X139.217 Y114.286 E3.42049
G1 X139.271 Y114.525 E3.42538
G1 X139.413 Y115.279 E3.44069
G1 X139.445 Y115.491 E3.44497
G1 X139.527 Y116.186 E3.45893
G1 X139.55 Y116.46 E3.46442
G1 X139.577 Y116.887 E3.47296
G1 X139.589 Y117.558 E3.48635
G1 X139.585 Y117.841 E3.492
G1 X139.542 Y118.654 E3.50825
G1 X139.518 Y118.917 E3.51352
G1 X139.406 Y119.765 E3.53059
G1 X139.359 Y120.036 E3.53608
G1 X139.196 Y120.808 E3.55182
G1 X139.145 Y121.011 E3.556
G1 X139.05 Y121.361 E3.56324
G1 X138.879 Y121.913 E3.57477
G1 X138.791 Y122.172 E3.58023
G1 X138.463 Y123.019 E3.59835
G1 X138.349 Y123.279 E3.60402
G1 X137.999 Y124 E3.62001
G1 X137.874 Y124.235 E3.62532
G1 X137.456 Y124.953 E3.6419
G1 X137.298 Y125.201 E3.64777
G1 X136.804 Y125.911 E3.66503
G1 X136.647 Y126.118 E3.67022
G1 X136.132 Y126.745 E3.68641
G1 X135.952 Y126.948 E3.69182
G1 X135.373 Y127.551 E3.70851
G1 X135.185 Y127.732 E3.71372
G1 X134.59 Y128.263 E3.72963
G1 X134.364 Y128.45 E3.73548
G1 X133.67 Y128.978 E3.75289
G1 X133.442 Y129.137 E3.75843
G1 X132.746 Y129.583 E3.77493
G1 X132.528 Y129.711 E3.77997
G1 X131.92 Y130.041 E3.79378
G1 X131.719 Y130.142 E3.79827
G1 X131.136 Y130.414 E3.81111
G1 X130.77 Y130.566 E3.81902
G1 X130.532 Y130.66 E3.82412
G1 X129.629 Y130.97 E3.84318
G1 X129.34 Y131.055 E3.84919
G1 X128.576 Y131.25 E3.86492
G1 X128.32 Y131.305 E3.87015
G1 X127.426 Y131.457 E3.88824
G1 X127.142 Y131.493 E3.89396
G1 X126.356 Y131.563 E3.9097
G1 X126.085 Y131.577 E3.91512
G1 X125.344 Y131.589 E3.92991
G1 X124.223 Y131.568 E3.95228
G1 X123.059 Y131.532 E3.97552
G1 X120.564 Y131.524 E4.02531
G1 X119.013 Y131.568 E4.05628
G1 X118.819 Y131.565 E4.06015
G1 X117.995 Y131.586 E4.0766
G1 X117.726 Y131.589 E4.08197
G1 X117.384 Y131.589 E4.08879
G1 X117.089 Y131.585 E4.09468
G1 X115.971 Y131.554 E4.117
G1 X113.417 Y131.519 E4.16797
G1 X110.607 Y131.577 E4.22406
G1 X109.793 Y131.589 E4.24031
G1 X109.51 Y131.589 E4.24596
G1 X109.177 Y131.585 E4.2526
G1 X108.333 Y131.541 E4.26947
G1 X108.072 Y131.517 E4.2747
G1 X107.207 Y131.402 E4.29211
G1 X106.934 Y131.354 E4.29764
G1 X106.175 Y131.191 E4.31313
G1 X105.724 Y131.074 E4.32243
G1 X105.645 Y131.052 E4.32407
G1 X105.043 Y130.865 E4.33665
G1 X104.787 Y130.777 E4.34205
G1 X103.97 Y130.458 E4.35955
G1 X103.715 Y130.346 E4.36511
G1 X103.073 Y130.038 E4.37932
G1 X102.891 Y129.943 E4.38342
G1 X102.296 Y129.607 E4.39706
G1 X102.095 Y129.485 E4.40175
G1 X101.462 Y129.07 E4.41685
G1 X101.228 Y128.904 E4.42258
G1 X100.514 Y128.35 E4.44061
G1 X100.293 Y128.163 E4.44639
G1 X99.685 Y127.607 E4.46283
G1 X99.499 Y127.423 E4.46805
G1 X99.13 Y127.039 E4.47868
G1 X98.778 Y126.64 E4.4893
G1 X98.623 Y126.455 E4.49412
G1 X98.184 Y125.894 E4.50833
G1 X98.06 Y125.724 E4.51253
G1 X97.818 Y125.377 E4.52097
G1 X97.751 Y125.277 E4.52337
G1 X97.419 Y124.75 E4.5358
G1 X97.292 Y124.534 E4.54081
G1 X96.919 Y123.841 E4.55651
G1 X96.794 Y123.587 E4.56216
G1 X96.434 Y122.771 E4.57996
G1 X96.333 Y122.513 E4.58549
G1 X96.062 Y121.732 E4.60198
G1 X95.979 Y121.459 E4.60768
G1 X95.786 Y120.731 E4.62271
G1 X95.732 Y120.494 E4.62756
G1 X95.566 Y119.587 E4.64596
G1 X95.526 Y119.297 E4.6518
G1 X95.45 Y118.541 E4.66697
G1 X95.433 Y118.281 E4.67217
G1 X95.411 Y117.44 E4.68895
G1 X95.415 Y117.155 E4.69464
G1 X95.459 Y116.333 E4.71107
G1 X95.483 Y116.072 E4.7163
G1 X95.589 Y115.26 E4.73264
G1 X95.625 Y115.049 E4.73691
G1 X95.695 Y114.678 E4.74445
G1 X95.815 Y114.149 E4.75527
G1 X95.865 Y113.952 E4.75933
G1 X95.973 Y113.557 E4.7675
G1 X96.124 Y113.076 E4.77756
G1 X96.21 Y112.823 E4.78289
G1 X96.517 Y112.027 E4.79992
G1 X96.597 Y111.842 E4.80394
G1 X96.751 Y111.501 E4.81141
G1 X97.003 Y110.996 E4.82267
G1 X97.127 Y110.763 E4.82794
G1 X97.549 Y110.04 E4.84464
G1 X97.706 Y109.794 E4.85047
G1 X98.19 Y109.098 E4.86739
G1 X98.349 Y108.888 E4.87264
G1 X98.867 Y108.257 E4.88893
G1 X99.046 Y108.055 E4.89432
G1 X99.57 Y107.505 E4.90948
G1 X99.901 Y107.186 E4.91865
G1 X101.02 Y106.147 E4.94913
G1 X101.55 Y105.664 E4.96344
G1 X103.352 Y103.928 E5.01337
G1 X105.14 Y102.103 E5.06436
G1 X107.213 Y99.871 E5.12515
G0 F6000 X107.506 Y100.144
G1 F900 X107.881 Y99.761 E5.13584
G1 X108.076 Y99.572 E5.14126
G1 X108.673 Y99.037 E5.15726
G1 X108.864 Y98.879 E5.16221
G1 X109.467 Y98.417 E5.17737
G1 X109.704 Y98.249 E5.18316
G1 X110.378 Y97.81 E5.19922
G1 X110.601 Y97.677 E5.2044
G1 X111.295 Y97.299 E5.22017
G1 X111.535 Y97.18 E5.22551
G1 X112.214 Y96.873 E5.24038
G1 X112.469 Y96.769 E5.24588
G1 X113.257 Y96.485 E5.2626
G1 X113.511 Y96.405 E5.26791
G1 X114.241 Y96.205 E5.28301
G1 X114.509 Y96.142 E5.28851
G1 X115.396 Y95.974 E5.30652
G1 X115.682 Y95.933 E5.31229
G1 X116.421 Y95.855 E5.32712
G1 X116.694 Y95.836 E5.33258
G1 X117.402 Y95.811 E5.34672
G1 X117.605 Y95.811 E5.35077
G1 X118.292 Y95.834 E5.36449
G1 X118.529 Y95.85 E5.36923
G1 X119.266 Y95.927 E5.38402
G1 X119.564 Y95.969 E5.39002
G1 X120.02 Y96.044 E5.39924
G1 X120.604 Y96.168 E5.41116
G1 X120.855 Y96.229 E5.41631
G1 X121.586 Y96.435 E5.43147
G1 X121.824 Y96.512 E5.43646
G1 X122.449 Y96.737 E5.44972
G1 X122.663 Y96.822 E5.45431
G1 X123.379 Y97.139 E5.46994
G1 X123.653 Y97.273 E5.47602
G1 X124.156 Y97.537 E5.48736
G1 X124.631 Y97.816 E5.49835
G1 X124.893 Y97.98 E5.50452
G1 X125.549 Y98.428 E5.52038
G1 X125.753 Y98.579 E5.52544
G1 X126.394 Y99.094 E5.54185
G1 X126.599 Y99.273 E5.54728
G1 X127.127 Y99.768 E5.56172
G1 X127.274 Y99.916 E5.56589
G1 X127.464 Y100.112 E5.57133
G1 X127.739 Y100.405 E5.57935
G1 X129.45 Y102.258 E5.62968
G1 X131.215 Y104.064 E5.68008
G1 X133.034 Y105.822 E5.73056
G1 X133.692 Y106.419 E5.74829
G1 X133.872 Y106.597 E5.75334
G1 X134.831 Y107.482 E5.77939
G1 X135.263 Y107.905 E5.79145
G1 X135.444 Y108.093 E5.79666
G1 X135.955 Y108.665 E5.81197
G1 X136.142 Y108.891 E5.81782
G1 X136.641 Y109.546 E5.83425
G1 X136.797 Y109.769 E5.83968
G1 X137.234 Y110.45 E5.85583
G1 X137.365 Y110.673 E5.86099
G1 X137.729 Y111.35 E5.87633
G1 X137.853 Y111.603 E5.88195
G1 X138.177 Y112.335 E5.89793
G1 X138.28 Y112.595 E5.90351
G1 X138.567 Y113.421 E5.92096
G1 X138.648 Y113.691 E5.92658
G1 X138.827 Y114.374 E5.94068
G1 X138.881 Y114.613 E5.94557
G1 X139.018 Y115.339 E5.96031
G1 X139.05 Y115.551 E5.96459
G1 X139.128 Y116.22 E5.97803
G1 X139.151 Y116.494 E5.98352
G1 X139.178 Y116.907 E5.99178
G1 X139.189 Y117.552 E6.00465
G1 X139.185 Y117.835 E6.0103
G1 X139.144 Y118.618 E6.02594
G1 X139.12 Y118.881 E6.03121
G1 X139.012 Y119.697 E6.04764
G1 X138.965 Y119.968 E6.05313
G1 X138.808 Y120.71 E6.06826
G1 X138.757 Y120.913 E6.07244
G1 X138.665 Y121.253 E6.07947
G1 X138.501 Y121.784 E6.09056
G1 X138.413 Y122.043 E6.09602
G1 X138.097 Y122.858 E6.11346
G1 X137.983 Y123.118 E6.11913
G1 X137.646 Y123.812 E6.13453
G1 X137.521 Y124.047 E6.13984
G1 X137.118 Y124.738 E6.1558
G1 X136.96 Y124.986 E6.16167
G1 X136.485 Y125.669 E6.17827
G1 X136.328 Y125.876 E6.18346
G1 X135.833 Y126.479 E6.19902
