;FLAVOR:Marlin
M117 Time Left 1h28m05s
;TIME:5285
;Filament used: 2.83811m
;Layer height: 0.16
;MINX:78.76
;MINY:83.5
;MINZ:0.2
;MAXX:156.24
;MAXY:151.5
;MAXZ:15.92
;POSTPROCESSED
;Generated with Cura_SteamEngine 4.8.0
M140 S70
M105
M190 S70
M104 S230
M105
M109 S230
M82 ;absolute extrusion mode
; Ender 3 Custom Start G-code
G92 E0 ; Reset Extruder
G28 ; Home all axes
; ***SET NEW E STEP *** (93 is factory value - 95 mine - start)
G90                          ; Force coordinates to be absolute relative to the origin
M92 E95 ;					 ; ***SET NEW E STEP *** (93 is factory value - 95 mine - end)
G90                          ; Force coordinates to be absolute relative to the origin
G28                          ; Home X/Y/Z axis
G92 E0 ; Reset Extruder
G28 ; Home all axes
G1 Z2.0 F3000 ; Move Z Axis up little to prevent scratching of Heat Bed
G1 X0.1 Y20 Z0.3 F5000.0 ; Move to start position
G1 X0.1 Y200.0 Z0.3 F1500.0 E15 ; Draw the first line
G1 X0.4 Y200.0 Z0.3 F5000.0 ; Move to side a little
G1 X0.4 Y20 Z0.3 F1500.0 E30 ; Draw the second line
G92 E0 ; Reset Extruder
G1 Z2.0 F3000 ; Move Z Axis up little to prevent scratching of Heat Bed
G1 X5 Y20 Z0.3 F5000.0 ; Move over to prevent blob squish
G92 E0
G92 E0
G1 F2700 E-5
;LAYER_COUNT:83
;LAYER:0
M107
G0 F6000 X90.014 Y90.201 Z0.2
;TYPE:SKIRT
G1 F2700 E0
G1 F900 X90.618 Y89.606 E0.0282
G1 X90.808 Y89.424 E0.03695
G1 X91.307 Y88.956 E0.0597
G1 X91.598 Y88.693 E0.07275
G1 X92.117 Y88.234 E0.09579
G1 X92.344 Y88.039 E0.10575
G1 X92.896 Y87.577 E0.12969
G1 X93.118 Y87.396 E0.13922
G1 X93.748 Y86.896 E0.16597
G1 X93.976 Y86.719 E0.17557
G1 X94.415 Y86.389 E0.19383
G1 X94.645 Y86.221 E0.20331
G1 X95.336 Y85.729 E0.23152
G1 X96.122 Y85.218 E0.2627
G1 X96.797 Y84.851 E0.28826
G1 X96.893 Y84.803 E0.29183
G1 X97.56 Y84.497 E0.31623
G1 X97.801 Y84.396 E0.32493
G1 X98.681 Y84.071 E0.35613
G1 X99.585 Y83.821 E0.38732
G1 X100.348 Y83.674 E0.41317
G1 X100.45 Y83.658 E0.4166
G1 X101.382 Y83.552 E0.4478
G1 X101.925 Y83.527 E0.46588
G1 X103.119 Y83.502 E0.5056
G1 X103.349 Y83.5 E0.51325
G1 X132.01 Y83.5 E1.46652
G1 X132.89 Y83.512 E1.49579
G1 X133.827 Y83.567 E1.52701
G1 X134.43 Y83.645 E1.54723
G1 X134.538 Y83.662 E1.55087
G1 X135.083 Y83.762 E1.5693
G1 X135.336 Y83.815 E1.57789
G1 X136.245 Y84.046 E1.60909
G1 X137.131 Y84.354 E1.64029
G1 X137.988 Y84.736 E1.67149
G1 X138.529 Y85.025 E1.69189
G1 X138.636 Y85.086 E1.69599
G1 X139.096 Y85.363 E1.71385
G1 X139.319 Y85.505 E1.72264
G1 X139.605 Y85.694 E1.73405
G1 X139.809 Y85.833 E1.74226
G1 X140.034 Y85.99 E1.75138
G1 X140.368 Y86.23 E1.76506
G1 X140.568 Y86.377 E1.77332
G1 X141.156 Y86.82 E1.7978
G1 X141.426 Y87.031 E1.8092
G1 X142.016 Y87.505 E1.83437
G1 X142.214 Y87.667 E1.84288
G1 X142.766 Y88.132 E1.86689
G1 X142.982 Y88.319 E1.87639
G1 X143.466 Y88.75 E1.89794
G1 X143.762 Y89.021 E1.91129
G1 X144.288 Y89.514 E1.93527
G1 X144.521 Y89.739 E1.94604
G1 X145.03 Y90.245 E1.96991
G1 X145.225 Y90.443 E1.97916
G1 X145.772 Y91.015 E2.00548
G1 X145.977 Y91.236 E2.01551
G1 X146.426 Y91.732 E2.03776
G1 X146.616 Y91.947 E2.0473
G1 X147.176 Y92.599 E2.07589
G1 X147.361 Y92.82 E2.08547
G1 X147.764 Y93.317 E2.10676
G1 X147.98 Y93.59 E2.11833
G1 X148.448 Y94.198 E2.14385
G1 X148.606 Y94.409 E2.15262
G1 X148.937 Y94.861 E2.17125
G1 X149.111 Y95.106 E2.18125
G1 X149.619 Y95.841 E2.21097
G1 X149.801 Y96.113 E2.22185
G1 X150.206 Y96.738 E2.24662
G1 X150.365 Y96.991 E2.25656
G1 X150.789 Y97.686 E2.28364
G1 X150.949 Y97.956 E2.29408
G1 X151.264 Y98.507 E2.31519
G1 X151.384 Y98.723 E2.32341
G1 X151.763 Y99.422 E2.34985
G1 X151.913 Y99.709 E2.36062
G1 X152.24 Y100.357 E2.38476
G1 X152.362 Y100.606 E2.39399
G1 X152.7 Y101.32 E2.42026
G1 X152.827 Y101.599 E2.43046
G1 X153.085 Y102.188 E2.45184
G1 X153.22 Y102.507 E2.46336
G1 X153.519 Y103.237 E2.4896
G1 X153.643 Y103.552 E2.50086
G1 X153.882 Y104.191 E2.52355
G1 X153.967 Y104.427 E2.5319
G1 X154.231 Y105.185 E2.55859
G1 X154.326 Y105.471 E2.56862
G1 X154.522 Y106.09 E2.59021
G1 X154.625 Y106.433 E2.60212
G1 X154.832 Y107.15 E2.62694
G1 X154.909 Y107.427 E2.63651
G1 X155.101 Y108.171 E2.66206
G1 X155.174 Y108.475 E2.67246
G1 X155.328 Y109.142 E2.69523
G1 X155.394 Y109.449 E2.70567
G1 X155.546 Y110.205 E2.73132
G1 X155.597 Y110.473 E2.7404
G1 X155.728 Y111.22 E2.76562
G1 X155.779 Y111.539 E2.77636
G1 X155.882 Y112.248 E2.80019
G1 X155.918 Y112.517 E2.80922
G1 X156.01 Y113.283 E2.83488
G1 X156.039 Y113.561 E2.84418
G1 X156.108 Y114.301 E2.8689
G1 X156.13 Y114.59 E2.87854
G1 X156.18 Y115.343 E2.90364
G1 X156.196 Y115.66 E2.91419
G1 X156.223 Y116.381 E2.93819
G1 X156.23 Y116.652 E2.94721
G1 X156.24 Y117.433 E2.97319
G1 X156.24 Y117.733 E2.98316
G1 X156.229 Y118.419 E3.00598
G1 X156.22 Y118.73 E3.01633
G1 X156.188 Y119.509 E3.04226
G1 X156.172 Y119.794 E3.05176
G1 X156.124 Y120.491 E3.07499
G1 X156.095 Y120.84 E3.08664
G1 X156.025 Y121.579 E3.11133
G1 X155.992 Y121.883 E3.1215
G1 X155.911 Y122.535 E3.14335
G1 X155.863 Y122.883 E3.15504
G1 X155.75 Y123.642 E3.18056
G1 X155.703 Y123.932 E3.19033
G1 X155.581 Y124.616 E3.21344
G1 X155.523 Y124.919 E3.2237
G1 X155.374 Y125.652 E3.24858
G1 X155.3 Y125.986 E3.25996
G1 X155.129 Y126.711 E3.28473
G1 X155.064 Y126.972 E3.29368
G1 X154.876 Y127.69 E3.31836
G1 X154.792 Y127.993 E3.32882
G1 X154.574 Y128.738 E3.35464
G1 X154.489 Y129.017 E3.36434
G1 X154.279 Y129.67 E3.38716
G1 X154.192 Y129.927 E3.39618
G1 X153.963 Y130.583 E3.41929
G1 X153.859 Y130.87 E3.42944
G1 X153.547 Y131.69 E3.45862
G1 X153.448 Y131.94 E3.46757
G1 X153.186 Y132.578 E3.49051
G1 X153.058 Y132.873 E3.5012
G1 X152.761 Y133.543 E3.52558
G1 X152.648 Y133.791 E3.53464
G1 X152.373 Y134.372 E3.55602
G1 X152.243 Y134.637 E3.56584
G1 X151.857 Y135.399 E3.59425
G1 X151.707 Y135.685 E3.60499
G1 X151.361 Y136.321 E3.62907
G1 X151.219 Y136.574 E3.63872
G1 X150.822 Y137.26 E3.66508
G1 X150.661 Y137.528 E3.67548
G1 X150.282 Y138.142 E3.69948
G1 X150.149 Y138.353 E3.70778
G1 X149.755 Y138.96 E3.73185
G1 X149.556 Y139.256 E3.74371
G1 X149.139 Y139.855 E3.76798
G1 X148.988 Y140.065 E3.77659
G1 X148.519 Y140.706 E3.803
G1 X148.338 Y140.947 E3.81303
G1 X147.929 Y141.475 E3.83524
G1 X147.754 Y141.696 E3.84462
G1 X147.229 Y142.339 E3.87223
G1 X147.016 Y142.592 E3.88323
G1 X146.563 Y143.114 E3.90622
G1 X146.391 Y143.307 E3.91481
G1 X145.866 Y143.884 E3.94076
G1 X145.655 Y144.11 E3.95104
G1 X145.191 Y144.592 E3.9733
G1 X144.986 Y144.799 E3.98299
G1 X144.382 Y145.394 E4.01119
G1 X144.192 Y145.576 E4.01994
G1 X143.693 Y146.044 E4.04269
G1 X143.402 Y146.307 E4.05574
G1 X142.883 Y146.766 E4.07878
G1 X142.656 Y146.961 E4.08873
G1 X142.104 Y147.423 E4.11267
G1 X141.882 Y147.604 E4.1222
G1 X141.252 Y148.104 E4.14895
G1 X141.001 Y148.298 E4.1595
G1 X140.462 Y148.701 E4.18189
G1 X140.24 Y148.862 E4.19101
G1 X139.641 Y149.287 E4.21544
G1 X138.854 Y149.797 E4.24663
G1 X137.62 Y150.422 E4.29264
G1 X137.271 Y150.572 E4.30527
G1 X136.394 Y150.905 E4.33647
G1 X135.492 Y151.163 E4.36768
G1 X134.136 Y151.399 E4.41345
G1 X133.919 Y151.423 E4.42072
G1 X132.982 Y151.487 E4.45195
G1 X132.577 Y151.497 E4.46543
G1 X132.305 Y151.5 E4.47447
G1 X102.831 Y151.499 E5.45478
G1 X102.139 Y151.489 E5.4778
G1 X101.203 Y151.435 E5.50899
G1 X100.285 Y151.304 E5.53983
G1 X100.011 Y151.253 E5.5491
G1 X99.527 Y151.152 E5.56554
G1 X99.394 Y151.121 E5.57008
G1 X98.491 Y150.869 E5.60127
G1 X97.612 Y150.542 E5.63246
G1 X96.764 Y150.14 E5.66367
G1 X96.096 Y149.758 E5.68927
G1 X95.904 Y149.639 E5.69678
G1 X95.354 Y149.274 E5.71873
G1 X94.595 Y148.738 E5.74964
G1 X94.325 Y148.542 E5.76074
G1 X93.848 Y148.183 E5.78059
G1 X93.574 Y147.969 E5.79216
G1 X92.984 Y147.495 E5.81733
G1 X92.785 Y147.332 E5.82588
G1 X92.232 Y146.866 E5.84994
G1 X92.016 Y146.679 E5.85944
G1 X91.508 Y146.227 E5.88205
G1 X91.237 Y145.978 E5.89429
G1 X90.71 Y145.484 E5.91832
G1 X90.478 Y145.26 E5.92905
G1 X89.97 Y144.755 E5.95287
G1 X89.777 Y144.558 E5.96204
G1 X89.224 Y143.98 E5.98865
G1 X89.012 Y143.753 E5.99898
G1 X88.569 Y143.263 E6.02095
G1 X88.384 Y143.053 E6.03026
G1 X87.824 Y142.401 E6.05884
G1 X87.639 Y142.18 E6.06843
G1 X87.236 Y141.683 E6.08971
G1 X87.022 Y141.412 E6.1012
G1 X86.553 Y140.803 E6.12676
G1 X86.391 Y140.587 E6.13574
G1 X86.061 Y140.136 E6.15433
G1 X85.887 Y139.891 E6.16433
G1 X85.367 Y139.138 E6.19476
G1 X85.184 Y138.865 E6.20569
G1 X84.791 Y138.258 E6.22974
G1 X84.635 Y138.009 E6.23952
G1 X84.211 Y137.314 E6.26659
G1 X84.057 Y137.054 E6.27665
G1 X83.739 Y136.499 E6.29792
G1 X83.611 Y136.269 E6.30667
G1 X83.234 Y135.573 E6.333
G1 X83.083 Y135.284 E6.34385
G1 X82.757 Y134.637 E6.36794
G1 X82.636 Y134.391 E6.37706
G1 X82.294 Y133.668 E6.40366
G1 X82.168 Y133.391 E6.41378
G1 X81.915 Y132.812 E6.4348
G1 X81.78 Y132.493 E6.44632
G1 X81.481 Y131.763 E6.47256
G1 X81.357 Y131.448 E6.48382
G1 X81.118 Y130.809 E6.50651
G1 X81.032 Y130.569 E6.51499
G1 X80.768 Y129.81 E6.54172
G1 X80.676 Y129.534 E6.55139
G1 X80.478 Y128.91 E6.57317
G1 X80.372 Y128.559 E6.58536
G1 X80.163 Y127.833 E6.61049
G1 X80.09 Y127.564 E6.61976
G1 X79.901 Y126.837 E6.64474
G1 X79.826 Y126.525 E6.65542
G1 X79.672 Y125.858 E6.67819
G1 X79.606 Y125.551 E6.68863
G1 X79.454 Y124.795 E6.71428
G1 X79.403 Y124.524 E6.72345
G1 X79.271 Y123.77 E6.74891
G1 X79.22 Y123.455 E6.75952
G1 X79.118 Y122.753 E6.78312
G1 X79.083 Y122.487 E6.79204
G1 X78.99 Y121.715 E6.8179
G1 X78.959 Y121.425 E6.8276
G1 X78.892 Y120.699 E6.85185
G1 X78.87 Y120.41 E6.86149
G1 X78.819 Y119.642 E6.88709
G1 X78.802 Y119.318 E6.89788
G1 X78.776 Y118.612 E6.92138
G1 X78.77 Y118.347 E6.9302
G1 X78.76 Y117.561 E6.95634
G1 X78.761 Y117.232 E6.96728
G1 X78.773 Y116.532 E6.99057
G1 X78.78 Y116.276 E6.99909
G1 X78.812 Y115.486 E7.02538
G1 X78.829 Y115.18 E7.03558
G1 X78.876 Y114.509 E7.05795
G1 X78.906 Y114.151 E7.0699
G1 X78.978 Y113.397 E7.09509
G1 X79.01 Y113.105 E7.10486
G1 X79.089 Y112.465 E7.12631
G1 X79.138 Y112.111 E7.1382
G1 X79.254 Y111.335 E7.16429
G1 X79.3 Y111.051 E7.17386
G1 X79.419 Y110.384 E7.1964
G1 X79.476 Y110.087 E7.20645
G1 X79.628 Y109.337 E7.23191
G1 X79.705 Y108.986 E7.24386
G1 X79.873 Y108.277 E7.26809
G1 X79.937 Y108.021 E7.27687
G1 X80.128 Y107.293 E7.3019
G1 X80.212 Y106.993 E7.31226
G1 X80.427 Y106.259 E7.3377
G1 X80.511 Y105.983 E7.3473
G1 X80.721 Y105.33 E7.37011
G1 X80.808 Y105.073 E7.37914
G1 X81.037 Y104.417 E7.40225
G1 X81.141 Y104.13 E7.4124
G1 X81.453 Y103.31 E7.44158
G1 X81.552 Y103.06 E7.45052
G1 X81.814 Y102.422 E7.47346
G1 X81.942 Y102.127 E7.48416
G1 X82.239 Y101.457 E7.50853
G1 X82.352 Y101.209 E7.5176
G1 X82.627 Y100.628 E7.53898
G1 X82.757 Y100.363 E7.5488
G1 X83.143 Y99.601 E7.57721
G1 X83.293 Y99.315 E7.58795
G1 X83.639 Y98.679 E7.61203
G1 X83.784 Y98.422 E7.62184
G1 X84.186 Y97.728 E7.64852
G1 X84.343 Y97.465 E7.65871
G1 X84.717 Y96.859 E7.68239
G1 X84.851 Y96.647 E7.69073
G1 X85.245 Y96.04 E7.7148
G1 X85.444 Y95.744 E7.72667
G1 X85.861 Y95.145 E7.75094
G1 X86.012 Y94.935 E7.75954
G1 X86.481 Y94.294 E7.78596
G1 X86.662 Y94.053 E7.79598
G1 X87.071 Y93.525 E7.8182
G1 X87.251 Y93.299 E7.82781
G1 X87.784 Y92.647 E7.85582
G1 X87.991 Y92.401 E7.86651
G1 X88.436 Y91.888 E7.8891
G1 X88.609 Y91.693 E7.89777
G1 X89.134 Y91.116 E7.92371
G1 X89.345 Y90.89 E7.934
G1 X89.809 Y90.408 E7.95625
G1 X90.014 Y90.201 E7.96594
G0 F6000 X90.295 Y90.486
G1 F900 X90.899 Y89.891 E7.99414
G1 X91.081 Y89.715 E8.00256
G1 X91.576 Y89.252 E8.0251
G1 X91.863 Y88.993 E8.03796
G1 X92.382 Y88.534 E8.06101
G1 X92.601 Y88.345 E8.07063
G1 X93.153 Y87.883 E8.09457
G1 X93.366 Y87.709 E8.10372
G1 X93.996 Y87.209 E8.13047
G1 X94.217 Y87.039 E8.13974
G1 X94.656 Y86.709 E8.15801
G1 X94.877 Y86.547 E8.16712
G1 X95.568 Y86.055 E8.19534
G1 X96.34 Y85.554 E8.22595
G1 X96.976 Y85.209 E8.25001
G1 X97.072 Y85.161 E8.25358
G1 X97.715 Y84.866 E8.27711
G1 X97.956 Y84.765 E8.2858
G1 X98.82 Y84.446 E8.31643
G1 X99.708 Y84.204 E8.34705
G1 X100.41 Y84.069 E8.37082
G1 X100.512 Y84.053 E8.37426
G1 X101.427 Y83.95 E8.40488
G1 X101.933 Y83.927 E8.42173
G1 X103.127 Y83.902 E8.46145
G1 X103.349 Y83.9 E8.46883
G1 X132.01 Y83.9 E9.4221
G1 X132.884 Y83.912 E9.45118
G1 X133.803 Y83.966 E9.48179
G1 X134.368 Y84.04 E9.50075
G1 X134.476 Y84.057 E9.50438
G1 X135.001 Y84.153 E9.52213
G1 X135.254 Y84.206 E9.53073
G1 X136.146 Y84.434 E9.56135
G1 X137.015 Y84.738 E9.59197
G1 X137.855 Y85.117 E9.62262
G1 X138.331 Y85.372 E9.64058
G1 X138.438 Y85.433 E9.64468
G1 X138.881 Y85.701 E9.6619
G1 X139.104 Y85.843 E9.6707
G1 X139.38 Y86.024 E9.68167
G1 X139.584 Y86.163 E9.68988
G1 X139.8 Y86.315 E9.69867
G1 X140.134 Y86.555 E9.71235
G1 X140.327 Y86.697 E9.72032
G1 X140.915 Y87.14 E9.7448
G1 X141.176 Y87.342 E9.75578
G1 X141.766 Y87.816 E9.78095
G1 X141.956 Y87.973 E9.78915
G1 X142.508 Y88.438 E9.81316
G1 X142.716 Y88.618 E9.8223
G1 X143.197 Y89.046 E9.84372
G1 X143.489 Y89.313 E9.85688
G1 X144.015 Y89.806 E9.88086
G1 X144.239 Y90.023 E9.89123
G1 X144.748 Y90.529 E9.9151
G1 X144.936 Y90.72 E9.92401
G1 X145.483 Y91.292 E9.95034
G1 X145.68 Y91.504 E9.95996
G1 X146.129 Y92 E9.98222
G1 X146.312 Y92.207 E9.99141
G1 X146.872 Y92.859 E10.01999
G1 X147.051 Y93.073 E10.02927
G1 X147.451 Y93.566 E10.05039
G1 X147.663 Y93.834 E10.06175
G1 X148.131 Y94.442 E10.08727
G1 X148.283 Y94.645 E10.09571
G1 X148.614 Y95.097 E10.11434
G1 X148.782 Y95.333 E10.12398
G1 X149.29 Y96.068 E10.15369
G1 X149.466 Y96.331 E10.16422
G1 X149.871 Y96.956 E10.18899
G1 X150.024 Y97.199 E10.19854
G1 X150.448 Y97.894 E10.22562
G1 X150.601 Y98.154 E10.23565
G1 X150.916 Y98.705 E10.25676
G1 X151.032 Y98.914 E10.26471
G1 X151.411 Y99.613 E10.29116
G1 X151.556 Y99.89 E10.30156
G1 X151.883 Y100.538 E10.3257
G1 X152.001 Y100.778 E10.33459
G1 X152.339 Y101.492 E10.36087
G1 X152.461 Y101.76 E10.37066
G1 X152.718 Y102.345 E10.39191
G1 X152.85 Y102.658 E10.40321
G1 X153.149 Y103.388 E10.42945
G1 X153.268 Y103.693 E10.44034
G1 X153.507 Y104.332 E10.46303
G1 X153.589 Y104.559 E10.47106
G1 X153.853 Y105.317 E10.49775
G1 X153.945 Y105.592 E10.5074
G1 X154.139 Y106.206 E10.52881
G1 X154.241 Y106.544 E10.54056
G1 X154.448 Y107.261 E10.56538
G1 X154.522 Y107.528 E10.57459
G1 X154.67 Y108.096 E10.59412
G1 X154.784 Y108.565 E10.61017
G1 X154.938 Y109.232 E10.63294
G1 X155.002 Y109.528 E10.64301
G1 X155.154 Y110.284 E10.66866
G1 X155.203 Y110.542 E10.67739
G1 X155.334 Y111.289 E10.70262
G1 X155.383 Y111.596 E10.71296
G1 X155.486 Y112.305 E10.73679
G1 X155.52 Y112.565 E10.74551
G1 X155.612 Y113.331 E10.77117
G1 X155.641 Y113.599 E10.78013
G1 X155.709 Y114.333 E10.80465
G1 X155.731 Y114.617 E10.81413
G1 X155.781 Y115.37 E10.83923
G1 X155.797 Y115.675 E10.84938
G1 X155.824 Y116.396 E10.87338
G1 X155.83 Y116.657 E10.88206
G1 X155.84 Y117.438 E10.90804
G1 X155.84 Y117.727 E10.91765
G1 X155.829 Y118.409 E10.94034
G1 X155.82 Y118.714 E10.95049
G1 X155.788 Y119.493 E10.97642
G1 X155.773 Y119.767 E10.98555
G1 X155.726 Y120.458 E11.00858
G1 X155.697 Y120.803 E11.0201
G1 X155.627 Y121.542 E11.04479
G1 X155.595 Y121.834 E11.05456
G1 X155.515 Y122.481 E11.07624
G1 X155.467 Y122.824 E11.08776
G1 X155.354 Y123.583 E11.11328
G1 X155.309 Y123.863 E11.12272
G1 X155.188 Y124.541 E11.14562
G1 X155.131 Y124.84 E11.15575
G1 X154.982 Y125.573 E11.18062
G1 X154.911 Y125.894 E11.19156
G1 X154.74 Y126.619 E11.21633
G1 X154.677 Y126.871 E11.22497
G1 X154.489 Y127.589 E11.24966
G1 X154.408 Y127.881 E11.25974
G1 X154.19 Y128.626 E11.28556
G1 X154.108 Y128.894 E11.29488
G1 X153.898 Y129.547 E11.31769
G1 X153.815 Y129.796 E11.32642
G1 X153.586 Y130.452 E11.34953
G1 X153.485 Y130.728 E11.35931
G1 X153.173 Y131.548 E11.38849
G1 X153.078 Y131.788 E11.39707
G1 X152.818 Y132.42 E11.4198
G1 X152.693 Y132.711 E11.43034
G1 X152.396 Y133.381 E11.45471
G1 X152.286 Y133.62 E11.46346
G1 X152.011 Y134.201 E11.48484
G1 X151.886 Y134.456 E11.49429
G1 X151.5 Y135.218 E11.5227
G1 X151.355 Y135.494 E11.53307
G1 X151.009 Y136.13 E11.55715
G1 X150.872 Y136.373 E11.56643
G1 X150.475 Y137.059 E11.59279
G1 X150.321 Y137.318 E11.60281
G1 X149.942 Y137.932 E11.62681
G1 X149.813 Y138.135 E11.63481
G1 X149.419 Y138.742 E11.65888
G1 X149.228 Y139.027 E11.67029
G1 X148.811 Y139.626 E11.69457
G1 X148.666 Y139.829 E11.70286
G1 X148.197 Y140.47 E11.72928
G1 X148.022 Y140.702 E11.73894
