;FLAVOR:Marlin
M117 Time Left 1h26m55s
;TIME:5215
;Filament used: 2.67873m
;Layer height: 0.16
;MINX:78.854
;MINY:79.668
;MINZ:0.2
;MAXX:155.423
;MAXY:151.63
;MAXZ:15.96
;POSTPROCESSED
;Generated with Cura_SteamEngine 4.8.0
M140 S70
M105
M190 S70
M104 S230
M105
M109 S230
M82 ;absolute extrusion mode
; Ender 3 Custom Start G-code
G92 E0 ; Reset Extruder
G28 ; Home all axes
; ***SET NEW E STEP *** (93 is factory value - 95 mine - start)
G90                          ; Force coordinates to be absolute relative to the origin
M92 E95 ;					 ; ***SET NEW E STEP *** (93 is factory value - 95 mine - end)
G90                          ; Force coordinates to be absolute relative to the origin
G28                          ; Home X/Y/Z axis
G92 E0 ; Reset Extruder
G28 ; Home all axes
G1 Z2.0 F3000 ; Move Z Axis up little to prevent scratching of Heat Bed
G1 X0.1 Y20 Z0.3 F5000.0 ; Move to start position
G1 X0.1 Y200.0 Z0.3 F1500.0 E15 ; Draw the first line
G1 X0.4 Y200.0 Z0.3 F5000.0 ; Move to side a little
G1 X0.4 Y20 Z0.3 F1500.0 E30 ; Draw the second line
G92 E0 ; Reset Extruder
G1 Z2.0 F3000 ; Move Z Axis up little to prevent scratching of Heat Bed
G1 X5 Y20 Z0.3 F5000.0 ; Move over to prevent blob squish
G92 E0
G92 E0
G1 F2700 E-5
;LAYER_COUNT:83
;LAYER:0
M107
G0 F6000 X92.005 Y89.204 Z0.2
;TYPE:SKIRT
G1 F2700 E0
G1 F900 X92.956 Y88.387 E0.0417
G1 X93.563 Y87.923 E0.06711
G1 X93.795 Y87.75 E0.07674
G1 X94.475 Y87.258 E0.10465
G1 X94.702 Y87.098 E0.11389
G1 X95.017 Y86.882 E0.12659
G1 X96.042 Y86.17 E0.1681
G1 X96.72 Y85.693 E0.19568
G1 X97.806 Y85.02 E0.23817
G1 X98.623 Y84.577 E0.26908
G1 X98.902 Y84.431 E0.27955
G1 X99.163 Y84.299 E0.28928
G1 X99.548 Y84.113 E0.3035
G1 X101.513 Y83.214 E0.37537
G1 X101.648 Y83.144 E0.38043
G1 X102.205 Y82.892 E0.40077
G1 X103.638 Y82.221 E0.45339
G1 X104.775 Y81.765 E0.49414
G1 X105.337 Y81.576 E0.51386
G1 X105.722 Y81.451 E0.52732
G1 X105.865 Y81.411 E0.53226
G1 X107.177 Y80.999 E0.578
G1 X107.8 Y80.823 E0.59953
G1 X108.319 Y80.693 E0.61733
G1 X108.587 Y80.629 E0.62649
G1 X109.426 Y80.441 E0.65509
G1 X110.685 Y80.235 E0.69752
G1 X111.58 Y80.142 E0.72745
G1 X111.987 Y80.105 E0.74104
G1 X112.852 Y80.015 E0.76997
G1 X115.585 Y79.756 E0.86127
G1 X115.954 Y79.727 E0.87358
G1 X116.43 Y79.698 E0.88945
G1 X116.739 Y79.684 E0.89973
G1 X117.044 Y79.674 E0.90988
G1 X117.384 Y79.668 E0.92119
G1 X118.096 Y79.668 E0.94487
G1 X118.958 Y79.679 E0.97355
G1 X119.255 Y79.687 E0.98343
G1 X119.657 Y79.703 E0.99681
G1 X119.914 Y79.716 E1.00537
G1 X120.926 Y79.78 E1.0391
G1 X121.252 Y79.805 E1.04997
G1 X121.92 Y79.869 E1.07229
G1 X122.671 Y79.951 E1.09742
G1 X123.598 Y80.092 E1.1286
G1 X124.271 Y80.247 E1.15157
G1 X124.344 Y80.266 E1.15408
G1 X127.748 Y81.075 E1.27045
G1 X128.455 Y81.229 E1.29452
G1 X129.362 Y81.468 E1.32572
G1 X130.228 Y81.776 E1.35629
G1 X131.102 Y82.129 E1.38764
G1 X132.014 Y82.493 E1.4203
G1 X132.645 Y82.742 E1.44286
G1 X133.472 Y83.109 E1.47295
G1 X134.131 Y83.434 E1.49739
G1 X134.406 Y83.574 E1.50766
G1 X134.985 Y83.88 E1.52944
G1 X135.261 Y84.03 E1.53988
G1 X135.901 Y84.392 E1.56434
G1 X136.158 Y84.543 E1.57425
G1 X137.095 Y85.107 E1.61063
G1 X137.328 Y85.251 E1.61974
G1 X137.584 Y85.414 E1.62983
G1 X139.038 Y86.356 E1.68746
G1 X140.955 Y87.558 E1.76271
G1 X141.717 Y88.038 E1.79267
G1 X142.488 Y88.572 E1.82386
G1 X143.21 Y89.17 E1.85504
G1 X143.654 Y89.594 E1.87546
G1 X143.907 Y89.855 E1.88755
G1 X144.434 Y90.418 E1.9132
G1 X144.636 Y90.64 E1.92318
G1 X145.033 Y91.088 E1.94309
G1 X145.239 Y91.327 E1.95359
G1 X145.775 Y91.968 E1.98138
G1 X145.976 Y92.216 E1.992
G1 X146.37 Y92.716 E2.01317
G1 X146.559 Y92.963 E2.02351
G1 X146.99 Y93.543 E2.04755
G1 X147.179 Y93.805 E2.05829
G1 X147.749 Y94.621 E2.0914
G1 X148.446 Y95.605 E2.1315
G1 X149.071 Y96.474 E2.16711
G1 X149.264 Y96.751 E2.17833
G1 X149.402 Y96.955 E2.18653
G1 X150.658 Y98.767 E2.25986
G1 X151.172 Y99.551 E2.29104
G1 X151.796 Y100.763 E2.33638
G1 X152.171 Y101.618 E2.36743
G1 X152.305 Y101.938 E2.37897
G1 X152.527 Y102.491 E2.39879
G1 X152.747 Y103.088 E2.41995
G1 X153 Y103.841 E2.44637
G1 X153.386 Y105.02 E2.48763
G1 X153.805 Y106.334 E2.5335
G1 X153.909 Y106.679 E2.54549
G1 X153.992 Y106.981 E2.55591
G1 X154.31 Y108.22 E2.59845
G1 X154.501 Y108.998 E2.6251
G1 X154.765 Y109.986 E2.65911
G1 X154.813 Y110.178 E2.66569
G1 X155.001 Y111.097 E2.69689
G1 X155.115 Y112.084 E2.72994
G1 X155.182 Y113.049 E2.76211
G1 X155.195 Y113.276 E2.76967
G1 X155.228 Y113.958 E2.79238
G1 X155.259 Y114.488 E2.81004
G1 X155.404 Y117.359 E2.90565
G1 X155.417 Y117.752 E2.91873
G1 X155.423 Y118.16 E2.9323
G1 X155.413 Y118.816 E2.95412
G1 X155.372 Y119.728 E2.98449
G1 X155.35 Y120.083 E2.99632
G1 X155.305 Y120.664 E3.0157
G1 X155.242 Y121.269 E3.03593
G1 X155.192 Y121.644 E3.04851
G1 X155.14 Y121.988 E3.06008
G1 X155.038 Y122.604 E3.08085
G1 X154.85 Y123.679 E3.11715
G1 X154.793 Y123.979 E3.12731
G1 X154.425 Y125.786 E3.18864
G1 X154.347 Y126.138 E3.20063
G1 X154.193 Y126.785 E3.22275
G1 X154.113 Y127.101 E3.23359
G1 X153.997 Y127.526 E3.24825
G1 X153.883 Y127.915 E3.26173
G1 X153.589 Y128.878 E3.29522
G1 X153.231 Y129.998 E3.33433
G1 X153.13 Y130.301 E3.34495
G1 X152.968 Y130.756 E3.36101
G1 X152.77 Y131.29 E3.37996
G1 X152.655 Y131.586 E3.39052
G1 X152.253 Y132.58 E3.42618
G1 X152.07 Y133.01 E3.44172
G1 X151.798 Y133.625 E3.46409
G1 X151.388 Y134.456 E3.49491
G1 X149.902 Y137.17 E3.59782
G1 X149.454 Y137.973 E3.62841
G1 X149.107 Y138.577 E3.65157
G1 X148.606 Y139.369 E3.68274
G1 X147.827 Y140.364 E3.72477
G1 X147.444 Y140.799 E3.74405
G1 X146.385 Y142.024 E3.79791
G1 X146.125 Y142.329 E3.81124
G1 X145.931 Y142.552 E3.82107
G1 X145.563 Y142.962 E3.83939
G1 X145.382 Y143.159 E3.84829
G1 X144.906 Y143.664 E3.87137
G1 X144.625 Y143.951 E3.88473
G1 X144.312 Y144.256 E3.89927
G1 X144 Y144.551 E3.91355
G1 X143.842 Y144.697 E3.9207
G1 X142.683 Y145.749 E3.97276
G1 X142.354 Y146.038 E3.98733
G1 X142.039 Y146.309 E4.00115
G1 X141.742 Y146.555 E4.01398
G1 X140.762 Y147.34 E4.05574
G1 X140.297 Y147.701 E4.07532
G1 X139.58 Y148.239 E4.10513
G1 X138.806 Y148.768 E4.13632
G1 X137.989 Y149.229 E4.16752
G1 X137.136 Y149.62 E4.19873
G1 X136.253 Y149.935 E4.22991
G1 X135.346 Y150.175 E4.26111
G1 X134.423 Y150.337 E4.29228
G1 X133.174 Y150.428 E4.33393
G1 X132.509 Y150.439 E4.35605
G1 X132.177 Y150.44 E4.3671
G1 X131.665 Y150.433 E4.38413
G1 X131.348 Y150.424 E4.39467
G1 X130.934 Y150.405 E4.40846
G1 X128.824 Y150.286 E4.47875
G1 X126.329 Y150.214 E4.56177
G1 X123.806 Y150.214 E4.64568
G1 X121.246 Y150.285 E4.73086
G1 X119.669 Y150.366 E4.78338
G1 X119.169 Y150.396 E4.80004
G1 X118.835 Y150.411 E4.81116
G1 X117.398 Y150.454 E4.85898
G1 X114.829 Y150.568 E4.94451
G1 X112.326 Y150.75 E5.02798
G1 X109.813 Y151.005 E5.11199
G1 X107.267 Y151.335 E5.19738
G1 X106.512 Y151.452 E5.22279
G1 X105.946 Y151.53 E5.24179
G1 X104.77 Y151.623 E5.28103
G1 X104.279 Y151.63 E5.29736
G1 X103.564 Y151.624 E5.32114
G1 X103.296 Y151.618 E5.33006
G1 X102.624 Y151.596 E5.35242
G1 X101.689 Y151.525 E5.38361
G1 X100.763 Y151.375 E5.41481
G1 X99.885 Y151.157 E5.4449
G1 X99.214 Y150.96 E5.46816
G1 X98.9 Y150.862 E5.4791
G1 X98.229 Y150.643 E5.50257
G1 X97.351 Y150.314 E5.53376
G1 X96.495 Y149.908 E5.56527
G1 X96.208 Y149.752 E5.57614
G1 X95.581 Y149.401 E5.60004
G1 X94.669 Y148.874 E5.63507
G1 X94.048 Y148.504 E5.65911
G1 X93.263 Y147.99 E5.69032
G1 X92.525 Y147.411 E5.72152
G1 X91.839 Y146.771 E5.75272
G1 X91.211 Y146.076 E5.78388
G1 X90.66 Y145.353 E5.81411
G1 X90.434 Y145.027 E5.82731
G1 X89.225 Y143.244 E5.89896
G1 X87.645 Y141.048 E5.98894
G1 X86.134 Y139.003 E6.0735
G1 X84.615 Y137.087 E6.15483
G1 X83.656 Y135.862 E6.20657
G1 X83.502 Y135.66 E6.21502
G1 X83.096 Y135.116 E6.2376
G1 X82.468 Y134.177 E6.27517
G1 X82.23 Y133.765 E6.291
G1 X81.982 Y133.314 E6.30811
G1 X81.833 Y133.033 E6.31869
G1 X81.532 Y132.446 E6.34063
G1 X81.14 Y131.594 E6.37183
G1 X80.914 Y130.994 E6.39315
G1 X80.613 Y130.116 E6.42402
G1 X80.518 Y129.823 E6.43427
G1 X80.296 Y129.111 E6.45907
G1 X80.194 Y128.765 E6.47107
G1 X80.128 Y128.526 E6.47932
G1 X80.05 Y128.23 E6.4895
G1 X79.904 Y127.631 E6.51
G1 X79.747 Y126.944 E6.53344
G1 X79.578 Y126.021 E6.56465
G1 X79.489 Y125.123 E6.59467
G1 X79.461 Y124.609 E6.61179
G1 X79.366 Y122.44 E6.684
G1 X79.184 Y119.927 E6.7678
G1 X78.965 Y117.7 E6.84223
G1 X78.923 Y117.199 E6.85895
G1 X78.89 Y116.663 E6.87681
G1 X78.88 Y116.463 E6.88347
G1 X78.854 Y115.787 E6.90597
G1 X78.879 Y114.508 E6.94852
G1 X78.934 Y113.803 E6.97204
G1 X78.967 Y113.46 E6.9835
G1 X79.034 Y112.849 E7.00394
G1 X79.212 Y111.743 E7.0412
G1 X79.316 Y111.293 E7.05656
G1 X79.494 Y110.592 E7.08062
G1 X80.016 Y108.634 E7.14802
G1 X80.213 Y107.934 E7.1722
G1 X80.639 Y106.705 E7.21547
G1 X80.8 Y106.323 E7.22925
G1 X80.962 Y105.954 E7.24266
G1 X81.062 Y105.734 E7.25069
G1 X81.359 Y105.096 E7.2741
G1 X81.492 Y104.819 E7.28432
G1 X81.826 Y104.151 E7.30916
G1 X82.956 Y101.816 E7.39544
G1 X83.901 Y99.692 E7.47276
G1 X84.18 Y99.083 E7.49504
G1 X84.606 Y98.248 E7.52622
G1 X85.133 Y97.408 E7.5592
G1 X85.68 Y96.617 E7.59119
G1 X85.89 Y96.324 E7.60318
G1 X86.271 Y95.81 E7.62446
G1 X86.442 Y95.585 E7.63386
G1 X86.75 Y95.191 E7.65049
G1 X86.909 Y94.992 E7.65896
G1 X87.496 Y94.276 E7.68976
G1 X87.794 Y93.927 E7.70502
G1 X89.659 Y91.836 E7.79821
G1 X90.812 Y90.506 E7.85676
G1 X91.358 Y89.882 E7.88433
G1 X92.005 Y89.204 E7.9155
G0 F6000 X92.294 Y89.48
G1 F900 X93.199 Y88.705 E7.95513
G1 X93.806 Y88.241 E7.98054
G1 X94.029 Y88.074 E7.98981
G1 X94.709 Y87.582 E8.01773
G1 X94.928 Y87.428 E8.02663
G1 X95.243 Y87.212 E8.03933
G1 X96.324 Y86.461 E8.08311
G1 X96.95 Y86.021 E8.10856
G1 X97.996 Y85.372 E8.14951
G1 X98.813 Y84.929 E8.18042
G1 X99.082 Y84.788 E8.19052
G1 X99.343 Y84.656 E8.20025
G1 X99.714 Y84.477 E8.21395
G1 X101.598 Y83.615 E8.28286
G1 X101.812 Y83.508 E8.29081
G1 X102.379 Y83.252 E8.31151
G1 X103.808 Y82.583 E8.36399
G1 X104.903 Y82.144 E8.40322
G1 X105.461 Y81.956 E8.42281
G1 X105.846 Y81.831 E8.43627
G1 X105.968 Y81.797 E8.44048
G1 X107.296 Y81.38 E8.48678
G1 X107.897 Y81.211 E8.50754
G1 X108.416 Y81.081 E8.52534
G1 X108.674 Y81.019 E8.53416
G1 X109.513 Y80.831 E8.56276
G1 X110.726 Y80.633 E8.60364
G1 X111.617 Y80.54 E8.63344
G1 X112.058 Y80.5 E8.64816
G1 X112.89 Y80.413 E8.67599
G1 X115.623 Y80.154 E8.76729
G1 X115.978 Y80.127 E8.77914
G1 X116.454 Y80.098 E8.795
G1 X116.752 Y80.084 E8.80492
G1 X117.057 Y80.074 E8.81507
G1 X117.385 Y80.068 E8.82598
G1 X118.091 Y80.068 E8.84946
G1 X118.953 Y80.079 E8.87813
G1 X119.24 Y80.086 E8.88768
G1 X119.642 Y80.102 E8.90106
G1 X119.889 Y80.115 E8.90929
G1 X120.901 Y80.179 E8.94302
G1 X121.215 Y80.204 E8.95349
G1 X121.877 Y80.267 E8.97561
G1 X122.628 Y80.349 E9.00074
G1 X123.538 Y80.488 E9.03136
G1 X124.17 Y80.634 E9.05293
G1 X124.237 Y80.652 E9.05524
G1 X127.692 Y81.472 E9.17334
G1 X128.369 Y81.62 E9.19639
G1 X129.26 Y81.855 E9.22704
G1 X130.079 Y82.147 E9.25596
G1 X130.953 Y82.5 E9.28731
G1 X131.867 Y82.865 E9.32005
G1 X132.498 Y83.114 E9.34261
G1 X133.295 Y83.467 E9.3716
G1 X133.954 Y83.792 E9.39604
G1 X134.219 Y83.927 E9.40593
G1 X134.798 Y84.233 E9.42771
G1 X135.064 Y84.379 E9.4378
G1 X135.704 Y84.741 E9.46226
G1 X135.951 Y84.885 E9.47177
G1 X136.888 Y85.449 E9.50814
G1 X137.113 Y85.588 E9.51694
G1 X137.366 Y85.75 E9.52693
G1 X138.852 Y86.712 E9.58581
G1 X140.746 Y87.899 E9.66015
G1 X141.503 Y88.376 E9.68991
G1 X142.26 Y88.901 E9.72055
G1 X142.967 Y89.49 E9.75116
G1 X143.371 Y89.877 E9.76977
G1 X143.615 Y90.128 E9.78141
G1 X144.142 Y90.691 E9.80706
G1 X144.336 Y90.905 E9.81667
G1 X144.733 Y91.353 E9.83658
G1 X144.932 Y91.583 E9.84669
G1 X145.468 Y92.224 E9.87448
G1 X145.662 Y92.463 E9.88472
G1 X146.056 Y92.963 E9.90589
G1 X146.238 Y93.202 E9.91589
G1 X146.669 Y93.782 E9.93992
G1 X146.851 Y94.034 E9.95026
G1 X147.381 Y94.793 E9.98105
G1 X148.106 Y95.817 E10.02278
G1 X148.747 Y96.708 E10.05929
G1 X148.932 Y96.974 E10.07006
G1 X149.087 Y97.203 E10.07926
G1 X150.27 Y98.912 E10.14839
G1 X150.333 Y99 E10.15199
G1 X150.837 Y99.77 E10.1826
G1 X151.429 Y100.923 E10.22571
G1 X151.804 Y101.778 E10.25676
G1 X151.934 Y102.087 E10.26791
G1 X152.156 Y102.64 E10.28773
G1 X152.368 Y103.215 E10.30811
G1 X152.62 Y103.966 E10.33446
G1 X153.005 Y105.142 E10.37562
G1 X153.424 Y106.456 E10.42149
G1 X153.525 Y106.79 E10.43309
G1 X153.604 Y107.081 E10.44312
G1 X153.922 Y108.315 E10.48551
G1 X154.128 Y109.153 E10.51421
G1 X154.377 Y110.083 E10.54623
G1 X154.425 Y110.275 E10.55281
G1 X154.609 Y111.177 E10.58343
G1 X154.716 Y112.112 E10.61473
G1 X154.783 Y113.077 E10.64691
G1 X154.826 Y113.927 E10.67521
G1 X154.86 Y114.508 E10.69457
G1 X155.005 Y117.379 E10.79018
G1 X155.017 Y117.758 E10.80279
G1 X155.023 Y118.166 E10.81636
G1 X155.013 Y118.798 E10.83739
G1 X154.972 Y119.71 E10.86775
G1 X154.951 Y120.053 E10.87918
G1 X154.906 Y120.634 E10.89856
G1 X154.845 Y121.216 E10.91803
G1 X154.795 Y121.591 E10.93061
G1 X154.745 Y121.923 E10.94178
G1 X154.644 Y122.535 E10.96241
G1 X154.456 Y123.61 E10.9987
G1 X154.401 Y123.899 E11.00849
G1 X154.033 Y125.706 E11.06982
G1 X153.958 Y126.045 E11.08137
G1 X153.804 Y126.692 E11.10349
G1 X153.727 Y126.997 E11.11395
G1 X153.612 Y127.414 E11.12834
G1 X153.5 Y127.798 E11.14165
G1 X153.164 Y128.894 E11.17977
G1 X152.85 Y129.876 E11.21406
G1 X152.752 Y130.169 E11.22434
G1 X152.593 Y130.617 E11.24015
G1 X152.395 Y131.151 E11.25909
G1 X152.284 Y131.436 E11.26927
G1 X151.884 Y132.425 E11.30475
G1 X151.704 Y132.849 E11.32007
G1 X151.432 Y133.464 E11.34244
G1 X151.037 Y134.264 E11.37211
G1 X149.552 Y136.976 E11.47495
G1 X149.107 Y137.773 E11.50531
G1 X148.76 Y138.377 E11.52848
G1 X148.267 Y139.155 E11.55911
G1 X147.527 Y140.099 E11.59901
G1 X147.08 Y140.607 E11.62151
G1 X146.082 Y141.762 E11.67228
G1 X145.82 Y142.07 E11.68573
G1 X145.633 Y142.284 E11.69518
G1 X145.091 Y142.885 E11.7221
G1 X144.615 Y143.39 E11.74518
G1 X144.344 Y143.666 E11.75805
G1 X144.038 Y143.965 E11.77228
G1 X143.726 Y144.26 E11.78656
G1 X142.55 Y145.331 E11.83946
G1 X142.179 Y145.66 E11.85596
G1 X141.778 Y146.006 E11.87357
G1 X141.492 Y146.243 E11.88593
G1 X140.359 Y147.149 E11.93418
G1 X139.927 Y147.48 E11.95228
G1 X139.34 Y147.919 E11.97666
G1 X138.58 Y148.438 E12.00727
G1 X137.777 Y148.888 E12.03788
G1 X136.938 Y149.268 E12.06852
G1 X136.07 Y149.573 E12.09912
G1 X135.178 Y149.802 E12.12975
G1 X134.27 Y149.953 E12.16036
G1 X133.167 Y150.029 E12.19713
G1 X132.502 Y150.04 E12.21925
G1 X132.182 Y150.04 E12.2299
G1 X131.67 Y150.033 E12.24693
G1 X131.365 Y150.024 E12.25708
G1 X130.957 Y150.006 E12.27066
G1 X128.86 Y149.887 E12.34052
G1 X126.305 Y149.814 E12.42553
G1 X123.795 Y149.814 E12.50902
G1 X121.212 Y149.886 E12.59496
G1 X119.724 Y149.962 E12.64452
G1 X119.144 Y149.997 E12.66384
G1 X118.823 Y150.011 E12.67453
G1 X117.441 Y150.052 E12.72052
G1 X114.781 Y150.17 E12.80907
G1 X112.289 Y150.351 E12.89218
G1 X109.757 Y150.608 E12.97682
G1 X107.239 Y150.935 E13.06128
G1 X106.451 Y151.057 E13.0878
G1 X105.893 Y151.133 E13.10653
G1 X104.76 Y151.224 E13.14433
G1 X104.643 Y151.227 E13.14823
G1 X104.282 Y151.23 E13.16023
G1 X103.567 Y151.224 E13.18402
G1 X103.309 Y151.218 E13.1926
G1 X102.637 Y151.196 E13.21496
G1 X101.719 Y151.126 E13.24558
G1 X100.811 Y150.977 E13.27619
G1 X99.998 Y150.773 E13.30407
G1 X99.327 Y150.576 E13.32733
G1 X99.024 Y150.482 E13.33788
G1 X98.353 Y150.263 E13.36135
G1 X97.491 Y149.939 E13.39198
G1 X96.682 Y149.554 E13.42178
G1 X96.403 Y149.403 E13.43233
G1 X95.781 Y149.054 E13.45605
G1 X94.873 Y148.53 E13.49092
G1 X94.252 Y148.16 E13.51497
G1 X93.483 Y147.655 E13.54556
G1 X92.76 Y147.085 E13.57619
G1 X92.089 Y146.454 E13.60682
G1 X91.475 Y145.768 E13.63744
G1 X90.988 Y145.124 E13.6643
G1 X90.765 Y144.803 E13.6773
G1 X89.537 Y142.992 E13.75007
G1 X87.972 Y140.816 E13.83922
G1 X86.446 Y138.752 E13.92459
G1 X84.93 Y136.84 E14.00575
G1 X83.971 Y135.615 E14.0575
G1 X83.823 Y135.421 E14.06561
G1 X83.417 Y134.877 E14.08819
G1 X82.811 Y133.972 E14.12441
G1 X82.581 Y133.573 E14.13973
G1 X82.333 Y133.122 E14.15685
G1 X82.189 Y132.851 E14.16706
G1 X81.888 Y132.264 E14.189
G1 X81.504 Y131.427 E14.21963
G1 X81.293 Y130.865 E14.23959
G1 X80.992 Y129.987 E14.27046
G1 X80.899 Y129.704 E14.28037
