;FLAVOR:Marlin
M117 Time Left 1h34m54s
;TIME:5694
;Filament used: 3.40802m
;Layer height: 0.2
;MINX:78.763
;MINY:83.501
;MINZ:0.2
;MAXX:156.237
;MAXY:151.5
;MAXZ:16
;POSTPROCESSED
;Generated with Cura_SteamEngine 4.8.0
M140 S50
M105
M190 S50
M104 S200
M105
M109 S200
M82 ;absolute extrusion mode
; Ender 3 Custom Start G-code
G92 E0 ; Reset Extruder
G28 ; Home all axes
; ***SET NEW E STEP *** (93 is factory value - 95 mine - start)
G90                          ; Force coordinates to be absolute relative to the origin
M92 E95 ;					 ; ***SET NEW E STEP *** (93 is factory value - 95 mine - end)
G90                          ; Force coordinates to be absolute relative to the origin
G28                          ; Home X/Y/Z axis
G92 E0 ; Reset Extruder
G28 ; Home all axes
G1 Z2.0 F3000 ; Move Z Axis up little to prevent scratching of Heat Bed
G1 X0.1 Y20 Z0.3 F5000.0 ; Move to start position
G1 X0.1 Y200.0 Z0.3 F1500.0 E15 ; Draw the first line
G1 X0.4 Y200.0 Z0.3 F5000.0 ; Move to side a little
G1 X0.4 Y20 Z0.3 F1500.0 E30 ; Draw the second line
G92 E0 ; Reset Extruder
G1 Z2.0 F3000 ; Move Z Axis up little to prevent scratching of Heat Bed
G1 X5 Y20 Z0.3 F5000.0 ; Move over to prevent blob squish
G92 E0
G92 E0
G1 F2700 E-6
;LAYER_COUNT:80
;LAYER:0
M107
M204 S500
M205 X8 Y8
G0 F7500 X90.173 Y90.035 Z0.2
;TYPE:SKIRT
G1 F2700 E0
G1 F1500 X90.48 Y89.73 E0.01367
G1 X90.698 Y89.52 E0.02324
G1 X91.316 Y88.939 E0.05004
G1 X91.555 Y88.721 E0.06026
G1 X91.933 Y88.386 E0.07622
G1 X92.2 Y88.157 E0.08733
G1 X92.909 Y87.568 E0.11646
G1 X93.218 Y87.32 E0.12898
G1 X94.545 Y86.296 E0.18194
G1 X94.828 Y86.085 E0.19309
G1 X95.18 Y85.831 E0.20681
G1 X95.964 Y85.315 E0.23646
G1 X96.591 Y84.967 E0.25912
G1 X96.846 Y84.836 E0.26818
G1 X97.697 Y84.443 E0.2978
G1 X98.945 Y84.017 E0.33947
G1 X99.3 Y83.919 E0.3511
G1 X100.214 Y83.708 E0.38074
G1 X101.142 Y83.576 E0.41036
G1 X102.01 Y83.524 E0.43784
G1 X103.074 Y83.503 E0.47146
G1 X103.291 Y83.501 E0.47832
G1 X132.018 Y83.501 E1.38601
G1 X132.898 Y83.513 E1.41382
G1 X133.835 Y83.568 E1.44347
G1 X134.438 Y83.646 E1.46269
G1 X134.546 Y83.663 E1.46614
G1 X135.03 Y83.75 E1.48168
G1 X135.31 Y83.807 E1.49071
G1 X136.22 Y84.033 E1.52033
G1 X137.108 Y84.336 E1.54998
G1 X137.967 Y84.713 E1.57962
G1 X138.767 Y85.149 E1.60841
G1 X138.939 Y85.252 E1.61474
G1 X139.709 Y85.757 E1.64384
G1 X140.303 Y86.184 E1.66696
G1 X140.517 Y86.342 E1.67536
G1 X141.235 Y86.885 E1.7038
G1 X141.508 Y87.099 E1.71476
G1 X142.167 Y87.632 E1.74155
G1 X142.663 Y88.046 E1.76196
G1 X142.921 Y88.269 E1.77273
G1 X143.55 Y88.828 E1.79932
G1 X143.785 Y89.043 E1.80939
G1 X144.388 Y89.611 E1.83556
G1 X144.579 Y89.795 E1.84394
G1 X144.925 Y90.137 E1.85931
G1 X145.132 Y90.347 E1.86863
G1 X145.667 Y90.905 E1.89306
G1 X145.872 Y91.125 E1.90256
G1 X146.358 Y91.662 E1.92544
G1 X146.551 Y91.882 E1.93469
G1 X147.164 Y92.594 E1.96438
G1 X147.482 Y92.977 E1.98011
G1 X147.858 Y93.445 E1.99907
G1 X148.363 Y94.093 E2.02503
G1 X148.546 Y94.336 E2.03465
G1 X149.048 Y95.021 E2.06148
G1 X149.248 Y95.304 E2.07243
G1 X149.761 Y96.048 E2.10098
G1 X150.035 Y96.459 E2.11659
G1 X150.187 Y96.697 E2.12551
G1 X150.499 Y97.198 E2.14416
G1 X150.683 Y97.503 E2.15542
G1 X151.194 Y98.386 E2.18765
G1 X151.415 Y98.782 E2.20198
G1 X151.865 Y99.617 E2.23195
G1 X152.01 Y99.896 E2.24189
G1 X152.251 Y100.376 E2.25886
G1 X152.358 Y100.595 E2.26656
G1 X152.676 Y101.265 E2.28999
G1 X152.809 Y101.556 E2.3001
G1 X153.016 Y102.027 E2.31636
G1 X153.135 Y102.307 E2.32597
G1 X153.502 Y103.209 E2.35674
G1 X153.622 Y103.518 E2.36722
G1 X153.941 Y104.378 E2.3962
G1 X154.14 Y104.937 E2.41495
G1 X154.25 Y105.261 E2.42576
G1 X154.527 Y106.123 E2.45437
G1 X154.62 Y106.429 E2.46447
G1 X154.84 Y107.189 E2.48947
G1 X154.914 Y107.458 E2.49829
G1 X155.061 Y108.022 E2.5167
G1 X155.151 Y108.388 E2.52861
G1 X155.356 Y109.259 E2.55689
G1 X155.422 Y109.556 E2.5665
G1 X155.545 Y110.152 E2.58573
G1 X155.598 Y110.428 E2.59461
G1 X155.689 Y110.934 E2.61085
G1 X155.743 Y111.263 E2.62139
G1 X155.893 Y112.272 E2.65362
G1 X155.939 Y112.616 E2.66459
G1 X156.038 Y113.465 E2.69159
G1 X156.071 Y113.793 E2.70201
G1 X156.123 Y114.411 E2.72161
G1 X156.173 Y115.125 E2.74422
G1 X156.191 Y115.438 E2.75413
G1 X156.216 Y116.042 E2.77323
G1 X156.224 Y116.331 E2.78236
G1 X156.237 Y117.194 E2.80964
G1 X156.237 Y117.519 E2.8199
G1 X156.224 Y118.365 E2.84664
G1 X156.205 Y119.146 E2.87132
G1 X156.189 Y119.514 E2.88296
G1 X156.172 Y119.808 E2.89227
G1 X156.112 Y120.649 E2.91891
G1 X156.067 Y121.157 E2.93502
G1 X156.025 Y121.585 E2.94861
G1 X155.992 Y121.887 E2.95821
G1 X155.947 Y122.244 E2.96958
G1 X155.893 Y122.618 E2.98152
G1 X155.608 Y124.387 E3.03814
G1 X155.547 Y124.736 E3.04933
G1 X155.405 Y125.465 E3.0728
G1 X155.338 Y125.785 E3.08313
G1 X155.134 Y126.683 E3.11222
G1 X155.053 Y127.014 E3.12299
G1 X154.851 Y127.791 E3.14836
G1 X154.77 Y128.087 E3.15806
G1 X154.645 Y128.518 E3.17224
G1 X154.571 Y128.763 E3.18032
G1 X154.36 Y129.432 E3.20249
G1 X154.262 Y129.727 E3.21231
G1 X154.013 Y130.441 E3.2362
G1 X153.813 Y130.99 E3.25466
G1 X153.55 Y131.685 E3.27814
G1 X153.439 Y131.966 E3.28769
G1 X153.188 Y132.578 E3.30859
G1 X153.062 Y132.874 E3.31876
G1 X152.748 Y133.58 E3.34317
G1 X152.625 Y133.846 E3.35243
G1 X152.386 Y134.347 E3.36997
G1 X152.263 Y134.597 E3.37877
G1 X151.906 Y135.299 E3.40366
G1 X151.772 Y135.554 E3.41276
G1 X151.491 Y136.071 E3.43135
G1 X151.175 Y136.634 E3.45175
G1 X150.714 Y137.432 E3.48087
G1 X150.563 Y137.685 E3.49018
G1 X150.24 Y138.209 E3.50963
G1 X149.946 Y138.671 E3.52693
G1 X149.727 Y139.002 E3.53947
G1 X149.197 Y139.772 E3.56901
G1 X149.005 Y140.042 E3.57948
G1 X148.446 Y140.804 E3.60934
G1 X148.26 Y141.05 E3.61908
G1 X147.789 Y141.653 E3.64326
G1 X147.397 Y142.14 E3.66301
G1 X147.191 Y142.389 E3.67323
G1 X146.645 Y143.028 E3.69978
G1 X146.433 Y143.268 E3.7099
G1 X145.989 Y143.758 E3.73079
G1 X145.755 Y144.008 E3.74161
G1 X145.239 Y144.543 E3.7651
G1 X145.045 Y144.74 E3.77384
G1 X144.409 Y145.367 E3.80205
G1 X144.202 Y145.566 E3.81113
G1 X143.912 Y145.836 E3.82365
G1 X143.419 Y146.288 E3.84478
G1 X142.94 Y146.714 E3.86504
G1 X142.707 Y146.915 E3.87476
G1 X142.112 Y147.415 E3.89932
G1 X141.867 Y147.615 E3.90931
G1 X141.202 Y148.142 E3.93612
G1 X140.988 Y148.307 E3.94466
G1 X140.574 Y148.618 E3.96102
G1 X140.223 Y148.875 E3.97476
G1 X139.647 Y149.284 E3.99709
G1 X138.859 Y149.794 E4.02674
G1 X137.788 Y150.348 E4.06484
G1 X137.679 Y150.397 E4.06862
G1 X137.18 Y150.607 E4.08573
G1 X136.917 Y150.71 E4.09465
G1 X136.03 Y151.014 E4.12428
G1 X135.12 Y151.242 E4.15392
G1 X134.14 Y151.398 E4.18527
G1 X133.954 Y151.419 E4.19119
G1 X132.883 Y151.487 E4.2251
G1 X131.912 Y151.5 E4.25578
G1 X102.827 Y151.499 E5.17478
G1 X102.163 Y151.49 E5.19577
G1 X101.227 Y151.437 E5.22539
G1 X100.245 Y151.295 E5.25674
G1 X99.806 Y151.211 E5.27086
G1 X98.893 Y150.996 E5.3005
G1 X98.388 Y150.841 E5.31719
G1 X97.512 Y150.506 E5.34683
G1 X96.668 Y150.099 E5.37643
G1 X95.513 Y149.384 E5.41935
G1 X94.603 Y148.74 E5.45458
G1 X94.316 Y148.53 E5.46582
G1 X93.801 Y148.14 E5.48623
G1 X93.575 Y147.965 E5.49526
G1 X93.052 Y147.545 E5.51645
G1 X92.787 Y147.326 E5.52732
G1 X92.153 Y146.792 E5.55351
G1 X91.934 Y146.603 E5.56265
G1 X91.576 Y146.285 E5.57778
G1 X91.379 Y146.106 E5.58619
G1 X90.742 Y145.512 E5.61371
G1 X90.481 Y145.261 E5.62515
G1 X89.973 Y144.755 E5.64781
G1 X89.777 Y144.554 E5.65668
G1 X89.175 Y143.923 E5.68423
G1 X88.992 Y143.727 E5.6927
G1 X88.637 Y143.335 E5.70942
G1 X88.338 Y142.996 E5.7237
G1 X87.872 Y142.454 E5.74628
G1 X87.686 Y142.232 E5.75543
G1 X87.116 Y141.53 E5.78401
G1 X86.929 Y141.291 E5.7936
G1 X86.481 Y140.706 E5.81688
G1 X86.306 Y140.472 E5.82611
G1 X85.901 Y139.913 E5.84792
G1 X85.731 Y139.671 E5.85727
G1 X85.367 Y139.139 E5.87763
G1 X85.184 Y138.862 E5.88812
G1 X84.729 Y138.152 E5.91477
G1 X84.572 Y137.9 E5.92415
G1 X84.032 Y137.005 E5.95718
G1 X83.865 Y136.718 E5.96767
G1 X83.565 Y136.184 E5.98702
G1 X83.257 Y135.617 E6.00741
G1 X83.109 Y135.334 E6.0175
G1 X82.763 Y134.65 E6.04172
G1 X82.592 Y134.299 E6.05406
G1 X82.291 Y133.663 E6.07629
G1 X82.165 Y133.386 E6.08591
G1 X81.887 Y132.754 E6.10772
G1 X81.788 Y132.521 E6.11572
G1 X81.521 Y131.874 E6.13784
G1 X81.4 Y131.569 E6.14821
G1 X81.237 Y131.138 E6.16277
G1 X80.913 Y130.235 E6.19308
G1 X80.796 Y129.889 E6.20462
G1 X80.416 Y128.701 E6.24403
G1 X80.307 Y128.34 E6.25595
G1 X80.063 Y127.476 E6.28431
G1 X79.944 Y127.027 E6.29899
G1 X79.86 Y126.692 E6.3099
G1 X79.702 Y126.011 E6.33199
G1 X79.637 Y125.71 E6.34172
G1 X79.456 Y124.81 E6.37073
G1 X79.393 Y124.468 E6.38172
G1 X79.217 Y123.423 E6.4152
G1 X79.168 Y123.106 E6.42534
G1 X79.088 Y122.521 E6.44399
G1 X79.003 Y121.838 E6.46574
G1 X78.968 Y121.522 E6.47579
G1 X78.908 Y120.877 E6.49625
G1 X78.874 Y120.464 E6.50935
G1 X78.827 Y119.781 E6.53098
G1 X78.811 Y119.49 E6.54019
G1 X78.791 Y119.016 E6.55518
G1 X78.782 Y118.733 E6.56413
G1 X78.763 Y117.576 E6.60069
G1 X78.763 Y117.221 E6.6119
G1 X78.776 Y116.401 E6.63782
G1 X78.785 Y116.107 E6.64711
G1 X78.814 Y115.426 E6.66865
G1 X78.831 Y115.118 E6.6784
G1 X78.881 Y114.435 E6.70003
G1 X78.931 Y113.858 E6.71833
G1 X79.009 Y113.078 E6.7431
G1 X79.05 Y112.722 E6.75443
G1 X79.143 Y112.033 E6.77639
G1 X79.213 Y111.552 E6.79175
G1 X79.268 Y111.212 E6.80263
G1 X79.443 Y110.227 E6.83425
G1 X79.508 Y109.891 E6.84506
G1 X79.668 Y109.129 E6.86966
G1 X79.736 Y108.826 E6.87947
G1 X79.872 Y108.26 E6.89787
G1 X79.95 Y107.953 E6.90787
G1 X80.164 Y107.146 E6.93425
G1 X80.245 Y106.86 E6.94365
G1 X80.401 Y106.33 E6.9611
G1 X80.486 Y106.054 E6.97023
G1 X80.759 Y105.209 E6.99829
G1 X80.845 Y104.954 E7.00679
G1 X81.043 Y104.39 E7.02568
G1 X81.161 Y104.067 E7.03654
G1 X81.425 Y103.369 E7.06012
G1 X81.622 Y102.883 E7.07669
G1 X82.168 Y101.624 E7.12005
G1 X82.312 Y101.306 E7.13108
G1 X82.69 Y100.505 E7.15907
G1 X82.829 Y100.222 E7.16903
G1 X83.132 Y99.625 E7.19019
G1 X83.275 Y99.352 E7.19992
G1 X83.586 Y98.781 E7.22047
G1 X83.915 Y98.195 E7.2417
G1 X84.228 Y97.657 E7.26137
G1 X84.378 Y97.408 E7.27055
G1 X84.719 Y96.856 E7.29105
G1 X84.882 Y96.599 E7.30067
G1 X85.341 Y95.9 E7.32709
G1 X85.511 Y95.65 E7.33665
G1 X85.737 Y95.326 E7.34913
G1 X86.081 Y94.842 E7.36789
G1 X86.553 Y94.195 E7.3932
G1 X86.743 Y93.943 E7.40317
G1 X87.107 Y93.473 E7.42195
G1 X87.26 Y93.28 E7.42973
G1 X87.56 Y92.91 E7.44478
G1 X87.809 Y92.614 E7.45701
G1 X88.463 Y91.863 E7.48847
G1 X88.727 Y91.571 E7.50091
G1 X89.622 Y90.615 E7.54229
G0 F1350 X89.895 Y90.323
G0 X90.173 Y90.035
G0 F7500 X90.455 Y90.319
G1 F1500 X90.762 Y90.014 E7.55596
G1 X90.972 Y89.811 E7.56519
G1 X91.59 Y89.23 E7.59199
G1 X91.82 Y89.02 E7.60183
G1 X92.198 Y88.685 E7.61779
G1 X92.455 Y88.464 E7.6285
G1 X93.164 Y87.875 E7.65763
G1 X93.462 Y87.637 E7.66968
G1 X94.789 Y86.613 E7.72264
G1 X95.062 Y86.409 E7.73341
G1 X95.414 Y86.155 E7.74712
G1 X96.184 Y85.649 E7.77624
G1 X96.773 Y85.322 E7.79752
G1 X97.028 Y85.191 E7.80658
G1 X97.865 Y84.807 E7.83568
G1 X99.051 Y84.402 E7.87528
G1 X99.406 Y84.304 E7.88691
G1 X100.304 Y84.098 E7.91602
G1 X101.215 Y83.97 E7.94509
G1 X102.018 Y83.924 E7.97051
G1 X103.082 Y83.903 E8.00413
G1 X103.291 Y83.901 E8.01074
G1 X132.018 Y83.901 E8.91843
G1 X132.892 Y83.913 E8.94605
G1 X133.811 Y83.967 E8.97513
G1 X134.376 Y84.041 E8.99314
G1 X134.484 Y84.058 E8.99659
G1 X134.95 Y84.142 E9.01155
G1 X135.23 Y84.199 E9.02058
G1 X136.124 Y84.422 E9.0497
G1 X136.994 Y84.721 E9.07876
G1 X137.836 Y85.095 E9.10788
G1 X138.562 Y85.492 E9.13402
G1 X138.734 Y85.595 E9.14036
G1 X139.475 Y86.082 E9.16837
G1 X140.069 Y86.509 E9.19149
G1 X140.276 Y86.662 E9.19962
G1 X140.994 Y87.205 E9.22806
G1 X141.257 Y87.41 E9.2386
G1 X141.91 Y87.939 E9.26515
G1 X142.406 Y88.353 E9.28557
G1 X142.655 Y88.568 E9.29596
G1 X143.284 Y89.127 E9.32255
G1 X143.511 Y89.334 E9.33226
G1 X144.114 Y89.902 E9.35843
G1 X144.298 Y90.079 E9.3665
G1 X144.644 Y90.421 E9.38187
G1 X144.843 Y90.624 E9.39086
G1 X145.378 Y91.182 E9.41528
G1 X145.576 Y91.394 E9.42445
G1 X146.058 Y91.927 E9.44715
G1 X146.248 Y92.143 E9.45624
G1 X146.861 Y92.855 E9.48593
G1 X147.173 Y93.231 E9.50137
G1 X147.635 Y93.808 E9.52472
G1 X148.047 Y94.338 E9.54593
G1 X148.224 Y94.573 E9.55523
G1 X148.723 Y95.254 E9.58191
G1 X148.919 Y95.531 E9.59263
G1 X149.432 Y96.275 E9.62118
G1 X149.701 Y96.679 E9.63652
G1 X149.848 Y96.909 E9.64514
G1 X150.16 Y97.41 E9.66379
G1 X150.336 Y97.704 E9.67462
G1 X150.95 Y98.767 E9.71341
G1 X151.065 Y98.975 E9.72092
G1 X151.513 Y99.807 E9.75078
G1 X151.653 Y100.076 E9.76036
G1 X151.894 Y100.556 E9.77733
G1 X151.997 Y100.767 E9.78475
G1 X152.315 Y101.437 E9.80818
G1 X152.443 Y101.717 E9.81791
G1 X152.65 Y102.188 E9.83416
G1 X152.764 Y102.458 E9.84342
G1 X153.131 Y103.36 E9.87419
G1 X153.247 Y103.658 E9.8843
G1 X153.564 Y104.512 E9.91308
G1 X153.763 Y105.071 E9.93183
G1 X153.869 Y105.383 E9.94224
G1 X154.146 Y106.245 E9.97085
G1 X154.236 Y106.541 E9.98063
G1 X154.456 Y107.301 E10.00563
G1 X154.527 Y107.56 E10.01411
G1 X154.673 Y108.119 E10.03237
G1 X154.762 Y108.48 E10.04411
G1 X154.967 Y109.351 E10.07239
G1 X155.03 Y109.637 E10.08164
G1 X155.153 Y110.233 E10.10087
G1 X155.205 Y110.499 E10.10943
G1 X155.296 Y111.005 E10.12568
G1 X155.348 Y111.322 E10.13583
G1 X155.498 Y112.331 E10.16806
G1 X155.542 Y112.662 E10.17861
G1 X155.641 Y113.511 E10.20562
G1 X155.673 Y113.827 E10.21565
G1 X155.724 Y114.439 E10.23506
G1 X155.774 Y115.153 E10.25767
G1 X155.791 Y115.455 E10.26723
G1 X155.816 Y116.059 E10.28633
G1 X155.824 Y116.337 E10.29512
G1 X155.837 Y117.2 E10.32239
G1 X155.837 Y117.513 E10.33228
G1 X155.824 Y118.356 E10.35892
G1 X155.805 Y119.128 E10.38332
G1 X155.789 Y119.496 E10.39496
G1 X155.773 Y119.78 E10.40395
G1 X155.713 Y120.615 E10.4304
G1 X155.669 Y121.118 E10.44635
G1 X155.627 Y121.546 E10.45994
G1 X155.595 Y121.837 E10.46919
G1 X155.55 Y122.194 E10.48056
G1 X155.498 Y122.554 E10.49206
G1 X155.213 Y124.323 E10.54867
G1 X155.153 Y124.665 E10.55964
G1 X155.013 Y125.388 E10.58291
G1 X154.948 Y125.696 E10.59286
G1 X154.744 Y126.594 E10.62196
G1 X154.666 Y126.913 E10.63233
G1 X154.464 Y127.69 E10.6577
G1 X154.385 Y127.976 E10.66707
G1 X154.26 Y128.407 E10.68125
G1 X154.189 Y128.642 E10.68901
G1 X153.978 Y129.311 E10.71118
G1 X153.884 Y129.596 E10.72066
G1 X153.637 Y130.305 E10.74438
G1 X153.439 Y130.849 E10.76267
G1 X153.176 Y131.544 E10.78615
G1 X153.069 Y131.814 E10.79533
G1 X152.818 Y132.426 E10.81623
G1 X152.696 Y132.712 E10.82605
G1 X152.382 Y133.418 E10.85047
G1 X152.264 Y133.674 E10.85938
G1 X152.025 Y134.175 E10.87691
G1 X151.906 Y134.416 E10.88541
G1 X151.549 Y135.118 E10.91029
G1 X151.42 Y135.364 E10.91907
G1 X151.142 Y135.876 E10.93748
G1 X150.829 Y136.434 E10.95769
G1 X150.368 Y137.232 E10.98681
G1 X150.222 Y137.476 E10.9958
G1 X149.903 Y137.994 E11.01502
G1 X149.609 Y138.456 E11.03232
G1 X149.398 Y138.775 E11.04441
G1 X148.868 Y139.545 E11.07394
G1 X148.683 Y139.805 E11.08403
G1 X148.124 Y140.567 E11.11389
G1 X147.944 Y140.805 E11.12332
G1 X147.477 Y141.403 E11.14729
G1 X147.085 Y141.89 E11.16704
G1 X146.887 Y142.129 E11.17685
G1 X146.341 Y142.768 E11.20341
G1 X146.137 Y143 E11.21317
G1 X145.693 Y143.49 E11.23406
G1 X145.468 Y143.731 E11.24448
G1 X144.952 Y144.266 E11.26796
G1 X144.764 Y144.456 E11.27641
G1 X144.128 Y145.083 E11.30463
G1 X143.929 Y145.274 E11.31335
G1 X143.642 Y145.542 E11.32575
G1 X143.153 Y145.989 E11.34669
G1 X142.674 Y146.415 E11.36694
G1 X142.449 Y146.609 E11.37633
G1 X141.854 Y147.109 E11.40088
G1 X141.619 Y147.302 E11.41049
G1 X140.954 Y147.829 E11.4373
G1 X140.747 Y147.988 E11.44555
G1 X140.337 Y148.296 E11.46175
G1 X139.991 Y148.549 E11.4753
G1 X139.415 Y148.958 E11.49762
G1 X138.642 Y149.458 E11.52671
G1 X137.624 Y149.983 E11.5629
G1 X137.515 Y150.032 E11.56668
G1 X137.034 Y150.234 E11.58316
G1 X136.771 Y150.337 E11.59208
G1 X135.9 Y150.635 E11.62117
G1 X135.007 Y150.857 E11.65025
G1 X134.095 Y151 E11.67942
G1 X133.909 Y151.021 E11.68533
G1 X132.877 Y151.087 E11.718
G1 X131.912 Y151.1 E11.7485
G1 X102.832 Y151.099 E12.66734
G1 X102.168 Y151.09 E12.68833
G1 X101.249 Y151.038 E12.71741
G1 X100.32 Y150.902 E12.74708
G1 X99.881 Y150.818 E12.7612
G1 X98.985 Y150.606 E12.79029
G1 X98.515 Y150.461 E12.80583
