;FLAVOR:Marlin
M117 Time Left 1h43m16s
;TIME:6196
;Filament used: 3.52514m
;Layer height: 0.2
;MINX:78.764
;MINY:83.5
;MINZ:0.2
;MAXX:156.236
;MAXY:151.5
;MAXZ:16
;POSTPROCESSED
;Generated with Cura_SteamEngine 4.7.1
M140 S50
M105
M190 S50
M104 S200
M105
M109 S200
M82 ;absolute extrusion mode
; Ender 3 Custom Start G-code
G21 ; Set to metric [change to G20 if you want Imperial]
G28 ; Home all axes
; ***SET NEW E STEP *** (93 is factory value - 95 mine - start)
G90                     ; Force coordinates to be absolute relative to the origin
M92 E95                 ; ***SET NEW E STEP *** (93 is factory value - 95 mine - end)
G90                     ; Force coordinates to be absolute relative to the origin
G28                     ; Home X/Y/Z axis
G92 E0                  ; Reset Extruder								
G28                     ; Home all axes		
G1 Z2.0 F3000           ; Move Z Axis up little to prevent scratching of Heat Bed
G1 X0.1 Y20 Z0.3 F5000.0        ; Move to start position
G1 X0.1 Y200.0 Z0.3 F1500.0 E15 ; Draw the first line
G1 X0.4 Y200.0 Z0.3 F5000.0     ; Move to side a little
G1 X0.4 Y20 Z0.3 F1500.0 E30    ; Draw the second line
G92 E0                  ; Reset Extruder
G1 Z2.0 F3000           ; Move Z Axis up little to prevent scratching of Heat Bed
G1 X5 Y20 Z0.3 F5000.0  ; Move over to prevent blob squish
G92 E0
G92 E0
G1 F2700 E-5
;LAYER_COUNT:80
;LAYER:0
M107
G0 F6000 X90.05 Y90.164 Z0.2
;TYPE:SKIRT
G1 F2700 E0
G1 F1200 X90.65 Y89.576 E0.02794
G1 X90.858 Y89.377 E0.03752
G1 X91.184 Y89.074 E0.05232
G1 X91.414 Y88.863 E0.0627
G1 X92.206 Y88.159 E0.09794
G1 X92.45 Y87.949 E0.10865
G1 X92.889 Y87.582 E0.12768
G1 X93.075 Y87.429 E0.13569
G1 X93.494 Y87.094 E0.15354
G1 X93.768 Y86.882 E0.16506
G1 X94.605 Y86.255 E0.19984
G1 X94.889 Y86.049 E0.21151
G1 X95.373 Y85.71 E0.23117
G1 X95.957 Y85.328 E0.25438
G1 X96.162 Y85.203 E0.26236
G1 X96.983 Y84.75 E0.29355
G1 X97.84 Y84.367 E0.32477
G1 X98.677 Y84.074 E0.35426
G1 X98.903 Y84.005 E0.36212
G1 X99.811 Y83.77 E0.39332
G1 X101.201 Y83.564 E0.44006
G1 X101.913 Y83.526 E0.46377
G1 X103.079 Y83.502 E0.50256
G1 X103.305 Y83.5 E0.51008
G1 X114.708 Y83.501 E0.88934
G1 X116.441 Y83.526 E0.94699
G1 X119.497 Y83.52 E1.04863
G1 X120.509 Y83.502 E1.0823
G1 X120.706 Y83.5 E1.08885
G1 X132.186 Y83.501 E1.47068
G1 X132.917 Y83.512 E1.49499
G1 X134.109 Y83.595 E1.53473
G1 X134.326 Y83.622 E1.54201
G1 X135.251 Y83.778 E1.57321
G1 X136.536 Y84.133 E1.61755
G1 X136.676 Y84.181 E1.62247
G1 X137.549 Y84.522 E1.65364
G1 X138.39 Y84.937 E1.68483
G1 X139.374 Y85.545 E1.72331
G1 X140.296 Y86.184 E1.76062
G1 X140.611 Y86.411 E1.77353
G1 X140.982 Y86.688 E1.78893
G1 X141.247 Y86.892 E1.80005
G1 X141.95 Y87.451 E1.82993
G1 X142.214 Y87.668 E1.84129
G1 X143.058 Y88.384 E1.8781
G1 X143.293 Y88.592 E1.88854
G1 X143.63 Y88.898 E1.90368
G1 X144.014 Y89.253 E1.92108
G1 X144.275 Y89.502 E1.93307
G1 X144.982 Y90.2 E1.96612
G1 X145.229 Y90.452 E1.97785
G1 X145.856 Y91.112 E2.00813
G1 X146.033 Y91.302 E2.01677
G1 X146.276 Y91.572 E2.02885
G1 X146.638 Y91.982 E2.04704
G1 X147.147 Y92.573 E2.07298
G1 X147.336 Y92.798 E2.08276
G1 X147.699 Y93.243 E2.10186
G1 X147.888 Y93.481 E2.11197
G1 X148.409 Y94.157 E2.14035
G1 X148.576 Y94.38 E2.14962
G1 X148.862 Y94.773 E2.16578
G1 X149.243 Y95.306 E2.18758
G1 X149.621 Y95.851 E2.20964
G1 X149.781 Y96.089 E2.21917
G1 X150.135 Y96.629 E2.24065
G1 X150.311 Y96.905 E2.25154
G1 X150.683 Y97.511 E2.27519
G1 X150.829 Y97.757 E2.2847
G1 X151.203 Y98.404 E2.30956
G1 X151.373 Y98.706 E2.32108
G1 X151.878 Y99.635 E2.35625
G1 X152.029 Y99.923 E2.36707
G1 X152.316 Y100.494 E2.38832
G1 X152.522 Y100.922 E2.40412
G1 X152.665 Y101.232 E2.41548
G1 X153.078 Y102.163 E2.44935
G1 X153.22 Y102.498 E2.46145
G1 X153.57 Y103.363 E2.49249
G1 X153.648 Y103.56 E2.49954
G1 X153.744 Y103.815 E2.5086
G1 X153.979 Y104.453 E2.53121
G1 X154.191 Y105.053 E2.55238
G1 X154.297 Y105.369 E2.56347
G1 X154.522 Y106.073 E2.58805
G1 X154.619 Y106.393 E2.59917
G1 X154.847 Y107.189 E2.62671
G1 X154.91 Y107.421 E2.6347
G1 X155.02 Y107.841 E2.64914
G1 X155.115 Y108.229 E2.66243
G1 X155.274 Y108.909 E2.68566
G1 X155.333 Y109.179 E2.69485
G1 X155.485 Y109.915 E2.71985
G1 X155.603 Y110.53 E2.74067
G1 X155.718 Y111.174 E2.76243
G1 X155.77 Y111.493 E2.77318
G1 X155.895 Y112.335 E2.80149
G1 X155.949 Y112.736 E2.81495
G1 X156.075 Y113.798 E2.85052
G1 X156.103 Y114.053 E2.85905
G1 X156.116 Y114.191 E2.86366
G1 X156.139 Y114.48 E2.87331
G1 X156.173 Y114.982 E2.89004
G1 X156.189 Y115.289 E2.90027
G1 X156.213 Y115.894 E2.9204
G1 X156.221 Y116.156 E2.92912
G1 X156.236 Y117.106 E2.96072
G1 X156.236 Y117.454 E2.9723
G1 X156.215 Y118.779 E3.01637
G1 X156.207 Y119.041 E3.02509
G1 X156.19 Y119.47 E3.03937
G1 X156.171 Y119.813 E3.0508
G1 X156.117 Y120.576 E3.07624
G1 X156.071 Y121.14 E3.09506
G1 X156.019 Y121.68 E3.1131
G1 X155.984 Y121.986 E3.12335
G1 X155.927 Y122.435 E3.1384
G1 X155.89 Y122.705 E3.14746
G1 X155.752 Y123.612 E3.17798
G1 X155.71 Y123.869 E3.18664
G1 X155.666 Y124.115 E3.19495
G1 X155.491 Y125.054 E3.22672
G1 X155.357 Y125.726 E3.24951
G1 X155.292 Y126.026 E3.25972
G1 X155.156 Y126.621 E3.28002
G1 X155.071 Y126.97 E3.29197
G1 X154.907 Y127.593 E3.3134
G1 X154.834 Y127.857 E3.32251
G1 X154.685 Y128.369 E3.34024
G1 X154.557 Y128.798 E3.35513
G1 X154.501 Y128.979 E3.36143
G1 X154.298 Y129.619 E3.38376
G1 X154.2 Y129.912 E3.39404
G1 X153.954 Y130.618 E3.41891
G1 X153.853 Y130.898 E3.42881
G1 X153.588 Y131.597 E3.45367
G1 X153.477 Y131.877 E3.46369
G1 X153.277 Y132.364 E3.4812
G1 X153.161 Y132.638 E3.4911
G1 X152.802 Y133.449 E3.52059
G1 X152.689 Y133.694 E3.52957
G1 X152.462 Y134.173 E3.5472
G1 X152.114 Y134.885 E3.57356
G1 X151.803 Y135.501 E3.59651
G1 X151.67 Y135.756 E3.60607
G1 X151.402 Y136.254 E3.62488
G1 X151.25 Y136.527 E3.63528
G1 X150.918 Y137.104 E3.65742
G1 X150.764 Y137.365 E3.6675
G1 X150.416 Y137.933 E3.68965
G1 X150.265 Y138.171 E3.69903
G1 X149.752 Y138.962 E3.73038
G1 X149.59 Y139.205 E3.7401
G1 X149.353 Y139.55 E3.75402
G1 X148.979 Y140.078 E3.77554
G1 X148.582 Y140.628 E3.7981
G1 X148.385 Y140.893 E3.80908
G1 X147.97 Y141.433 E3.83173
G1 X147.786 Y141.665 E3.84158
G1 X147.362 Y142.187 E3.86395
G1 X147.155 Y142.435 E3.87469
G1 X146.742 Y142.914 E3.89573
G1 X146.481 Y143.209 E3.90883
G1 X145.829 Y143.925 E3.94104
G1 X145.652 Y144.115 E3.94968
G1 X145.347 Y144.434 E3.96436
G1 X145.02 Y144.766 E3.97985
G1 X144.61 Y145.172 E3.99905
G1 X144.377 Y145.396 E4.0098
G1 X143.654 Y146.071 E4.04269
G1 X143.409 Y146.293 E4.05369
G1 X142.74 Y146.881 E4.08331
G1 X142.537 Y147.055 E4.09221
G1 X142.157 Y147.373 E4.10869
G1 X141.961 Y147.534 E4.11712
G1 X141.381 Y147.997 E4.14181
G1 X141.123 Y148.196 E4.15264
G1 X140.474 Y148.683 E4.17963
G1 X140.202 Y148.88 E4.1908
G1 X139.637 Y149.28 E4.21383
G1 X138.767 Y149.836 E4.24817
G1 X138.588 Y149.939 E4.25504
G1 X137.756 Y150.372 E4.28623
G1 X136.47 Y150.877 E4.33218
G1 X136.271 Y150.941 E4.33914
G1 X135.367 Y151.19 E4.37032
G1 X134.24 Y151.387 E4.40838
G1 X134.191 Y151.393 E4.41002
G1 X133.087 Y151.473 E4.44683
G1 X131.909 Y151.498 E4.48602
G1 X131.676 Y151.5 E4.49377
G1 X120.373 Y151.499 E4.86971
G1 X118.9 Y151.478 E4.91871
G1 X116.282 Y151.478 E5.00578
G1 X115.468 Y151.496 E5.03287
G1 X114.981 Y151.5 E5.04906
G1 X102.828 Y151.499 E5.45327
G1 X102.141 Y151.489 E5.47613
G1 X101.206 Y151.435 E5.50728
G1 X100.986 Y151.413 E5.51463
G1 X100.058 Y151.28 E5.54581
G1 X99.149 Y151.07 E5.57684
G1 X99.055 Y151.044 E5.58008
G1 X98.162 Y150.756 E5.61129
G1 X96.974 Y150.233 E5.65446
G1 X96.681 Y150.083 E5.66541
G1 X95.607 Y149.454 E5.70681
G1 X95.464 Y149.359 E5.71252
G1 X95.163 Y149.152 E5.72467
G1 X94.734 Y148.846 E5.7422
G1 X94.202 Y148.454 E5.76418
G1 X93.907 Y148.229 E5.77651
G1 X92.984 Y147.497 E5.8157
G1 X92.7 Y147.263 E5.82794
G1 X92.051 Y146.712 E5.85625
G1 X91.839 Y146.528 E5.86559
G1 X91.528 Y146.25 E5.87946
G1 X91.351 Y146.088 E5.88744
G1 X90.775 Y145.55 E5.91366
G1 X90.53 Y145.314 E5.92497
G1 X89.897 Y144.683 E5.9547
G1 X89.756 Y144.538 E5.96143
G1 X89.21 Y143.966 E5.98773
G1 X88.995 Y143.734 E5.99825
G1 X88.462 Y143.141 E6.02477
G1 X88.26 Y142.909 E6.035
G1 X87.679 Y142.225 E6.06485
G1 X87.43 Y141.923 E6.07787
G1 X87.344 Y141.817 E6.08241
G1 X86.954 Y141.325 E6.10329
G1 X86.596 Y140.862 E6.12275
G1 X86.388 Y140.584 E6.1343
G1 X85.871 Y139.87 E6.16362
G1 X85.679 Y139.596 E6.17475
G1 X85.185 Y138.868 E6.20401
G1 X85.037 Y138.644 E6.21294
G1 X84.848 Y138.349 E6.22459
G1 X84.63 Y138.002 E6.23822
G1 X84.281 Y137.431 E6.26048
G1 X84.118 Y137.155 E6.27114
G1 X83.76 Y136.529 E6.29513
G1 X83.542 Y136.134 E6.31013
G1 X83.107 Y135.324 E6.34071
G1 X82.959 Y135.039 E6.35139
G1 X82.803 Y134.727 E6.363
G1 X82.676 Y134.463 E6.37274
G1 X82.13 Y133.294 E6.41565
G1 X81.996 Y132.997 E6.42649
G1 X81.763 Y132.457 E6.44605
G1 X81.631 Y132.137 E6.45756
G1 X81.354 Y131.435 E6.48266
G1 X81.245 Y131.147 E6.49291
G1 X81.047 Y130.601 E6.51222
G1 X80.984 Y130.422 E6.51854
G1 X80.661 Y129.481 E6.55163
G1 X80.572 Y129.211 E6.56108
G1 X80.438 Y128.785 E6.57593
G1 X80.37 Y128.561 E6.58372
G1 X80.199 Y127.974 E6.60406
G1 X80.117 Y127.675 E6.61437
G1 X79.915 Y126.901 E6.64097
G1 X79.838 Y126.59 E6.65163
G1 X79.693 Y125.96 E6.67313
G1 X79.622 Y125.628 E6.68442
G1 X79.476 Y124.89 E6.70945
G1 X79.405 Y124.502 E6.72256
G1 X79.207 Y123.33 E6.7621
G1 X79.161 Y123.035 E6.77203
G1 X79.113 Y122.694 E6.78348
G1 X79.003 Y121.818 E6.81285
G1 X78.969 Y121.507 E6.82325
G1 X78.905 Y120.836 E6.84567
G1 X78.873 Y120.438 E6.85895
G1 X78.825 Y119.741 E6.88219
G1 X78.809 Y119.46 E6.89155
G1 X78.794 Y119.113 E6.9031
G1 X78.785 Y118.81 E6.91318
G1 X78.764 Y117.469 E6.95779
G1 X78.764 Y117.12 E6.9694
G1 X78.778 Y116.248 E6.99841
G1 X78.787 Y115.967 E7.00776
G1 X78.811 Y115.391 E7.02693
G1 X78.828 Y115.078 E7.03736
G1 X78.863 Y114.58 E7.05396
G1 X78.888 Y114.281 E7.06394
G1 X78.952 Y113.626 E7.08583
G1 X78.982 Y113.359 E7.09477
G1 X79.055 Y112.767 E7.1146
G1 X79.129 Y112.225 E7.1328
G1 X79.266 Y111.312 E7.16351
G1 X79.315 Y111.012 E7.17362
G1 X79.426 Y110.396 E7.19443
G1 X79.529 Y109.858 E7.21265
G1 X79.666 Y109.181 E7.23563
G1 X79.743 Y108.827 E7.24768
G1 X79.902 Y108.156 E7.27061
G1 X79.978 Y107.854 E7.28097
G1 X80.17 Y107.135 E7.30572
G1 X80.239 Y106.888 E7.31425
G1 X80.369 Y106.443 E7.32967
G1 X80.456 Y106.158 E7.33958
G1 X80.729 Y105.312 E7.36915
G1 X80.815 Y105.056 E7.37813
G1 X81.054 Y104.377 E7.40207
G1 X81.214 Y103.944 E7.41743
G1 X81.49 Y103.219 E7.44323
G1 X81.612 Y102.912 E7.45422
G1 X81.846 Y102.352 E7.4744
G1 X82.103 Y101.754 E7.49605
G1 X82.195 Y101.545 E7.50365
G1 X82.34 Y101.226 E7.5153
G1 X82.462 Y100.966 E7.52485
G1 X82.781 Y100.312 E7.54905
G1 X83.024 Y99.825 E7.56716
G1 X83.197 Y99.493 E7.57961
G1 X83.66 Y98.639 E7.61192
G1 X83.842 Y98.316 E7.62425
G1 X84.238 Y97.641 E7.65028
G1 X84.353 Y97.449 E7.65772
G1 X84.504 Y97.205 E7.66727
G1 X84.953 Y96.494 E7.69523
G1 X85.332 Y95.911 E7.71836
G1 X85.513 Y95.642 E7.72915
G1 X85.858 Y95.144 E7.7493
G1 X86.031 Y94.9 E7.75924
G1 X86.461 Y94.314 E7.78342
G1 X86.631 Y94.089 E7.7928
G1 X86.977 Y93.642 E7.8116
G1 X87.355 Y93.167 E7.83179
G1 X87.797 Y92.626 E7.85502
G1 X88.006 Y92.378 E7.86581
G1 X88.438 Y91.88 E7.88774
G1 X88.626 Y91.668 E7.89716
G1 X89.198 Y91.042 E7.92537
G1 X89.435 Y90.792 E7.93682
G1 X89.865 Y90.35 E7.95733
G1 X90.05 Y90.164 E7.96606
G0 F6000 X90.33 Y90.449
G1 F1200 X90.93 Y89.861 E7.994
G1 X91.131 Y89.669 E8.00325
G1 X91.454 Y89.369 E8.01791
G1 X91.816 Y89.039 E8.0342
G1 X92.471 Y88.458 E8.06332
G1 X92.706 Y88.255 E8.07365
G1 X93.145 Y87.888 E8.09268
G1 X93.325 Y87.742 E8.10039
G1 X93.744 Y87.407 E8.11823
G1 X94.008 Y87.202 E8.12935
G1 X94.845 Y86.575 E8.16413
G1 X95.119 Y86.377 E8.17538
G1 X95.603 Y86.038 E8.19503
G1 X96.166 Y85.67 E8.2174
G1 X96.371 Y85.545 E8.22539
G1 X97.177 Y85.1 E8.25601
G1 X98.018 Y84.727 E8.28661
G1 X98.794 Y84.457 E8.31394
G1 X99.02 Y84.388 E8.3218
G1 X99.911 Y84.158 E8.3524
G1 X101.235 Y83.963 E8.39691
G1 X101.921 Y83.926 E8.41976
G1 X103.087 Y83.902 E8.45855
G1 X103.305 Y83.9 E8.4658
G1 X114.702 Y83.901 E8.84487
G1 X116.435 Y83.926 E8.90252
G1 X119.505 Y83.92 E9.00462
G1 X120.516 Y83.902 E9.03826
G1 X120.706 Y83.9 E9.04458
G1 X132.179 Y83.901 E9.42617
G1 X132.91 Y83.912 E9.45048
G1 X134.06 Y83.992 E9.48883
G1 X134.277 Y84.019 E9.4961
G1 X135.185 Y84.172 E9.52673
G1 X136.406 Y84.511 E9.56887
G1 X136.546 Y84.559 E9.57379
G1 X137.403 Y84.895 E9.60441
G1 X138.228 Y85.304 E9.63504
G1 X139.146 Y85.874 E9.67098
G1 X140.068 Y86.513 E9.70829
G1 X140.372 Y86.731 E9.72073
G1 X140.743 Y87.008 E9.73613
G1 X140.998 Y87.205 E9.74685
G1 X141.701 Y87.764 E9.77672
G1 X141.955 Y87.973 E9.78766
G1 X142.796 Y88.686 E9.82433
G1 X143.025 Y88.888 E9.83449
G1 X143.359 Y89.192 E9.84951
G1 X143.743 Y89.547 E9.8669
G1 X143.994 Y89.787 E9.87845
G1 X144.701 Y90.485 E9.9115
G1 X144.939 Y90.727 E9.92279
G1 X145.566 Y91.387 E9.95307
G1 X145.736 Y91.571 E9.9614
G1 X145.977 Y91.837 E9.97334
G1 X146.235 Y92.128 E9.98627
G1 X146.844 Y92.834 E10.01728
G1 X147.026 Y93.051 E10.0267
G1 X147.389 Y93.496 E10.0458
G1 X147.571 Y93.725 E10.05553
G1 X148.092 Y94.401 E10.08392
G1 X148.253 Y94.616 E10.09285
G1 X148.537 Y95.006 E10.1089
G1 X148.914 Y95.534 E10.13048
G1 X149.292 Y96.079 E10.15254
G1 X149.447 Y96.309 E10.16176
G1 X149.801 Y96.849 E10.18324
G1 X149.97 Y97.115 E10.19372
G1 X150.342 Y97.721 E10.21737
G1 X150.483 Y97.957 E10.22651
G1 X150.854 Y98.6 E10.2512
G1 X151.103 Y99.045 E10.26816
G1 X151.527 Y99.826 E10.29772
G1 X151.672 Y100.103 E10.30812
G1 X151.865 Y100.485 E10.32235
G1 X151.955 Y100.668 E10.32914
G1 X152.161 Y101.096 E10.34494
G1 X152.299 Y101.395 E10.35589
G1 X152.712 Y102.326 E10.38976
G1 X152.849 Y102.648 E10.4014
G1 X153.199 Y103.513 E10.43244
G1 X153.326 Y103.839 E10.44408
G1 X153.551 Y104.447 E10.46564
G1 X153.813 Y105.187 E10.49175
G1 X153.916 Y105.491 E10.50242
G1 X154.141 Y106.195 E10.527
G1 X154.234 Y106.503 E10.53771
G1 X154.462 Y107.299 E10.56525
G1 X154.523 Y107.522 E10.57294
G1 X154.631 Y107.937 E10.5872
G1 X154.726 Y108.321 E10.60035
G1 X154.885 Y109.001 E10.62358
G1 X154.942 Y109.26 E10.6324
G1 X155.063 Y109.843 E10.65221
G1 X155.209 Y110.601 E10.67788
G1 X155.324 Y111.245 E10.69964
G1 X155.374 Y111.551 E10.70995
G1 X155.523 Y112.561 E10.74391
G1 X155.571 Y112.936 E10.75648
G1 X155.678 Y113.844 E10.78689
G1 X155.717 Y114.229 E10.79976
G1 X155.74 Y114.507 E10.80904
G1 X155.774 Y115.009 E10.82577
G1 X155.79 Y115.305 E10.83563
G1 X155.814 Y115.91 E10.85577
G1 X155.821 Y116.163 E10.86419
G1 X155.836 Y117.113 E10.89579
G1 X155.836 Y117.448 E10.90693
G1 X155.815 Y118.773 E10.95101
G1 X155.808 Y119.025 E10.95939
G1 X155.791 Y119.454 E10.97367
G1 X155.772 Y119.785 E10.9847
G1 X155.718 Y120.544 E11.01001
G1 X155.672 Y121.108 E11.02883
G1 X155.656 Y121.286 E11.03477
G1 X155.621 Y121.641 E11.04664
G1 X155.588 Y121.936 E11.05651
G1 X155.531 Y122.385 E11.07157
G1 X155.494 Y122.644 E11.08027
G1 X155.356 Y123.551 E11.11078
G1 X155.316 Y123.799 E11.11914
G1 X155.125 Y124.835 E11.15417
G1 X154.964 Y125.648 E11.18174
G1 X154.903 Y125.937 E11.19156
G1 X154.767 Y126.532 E11.21186
G1 X154.684 Y126.868 E11.22338
G1 X154.52 Y127.491 E11.2448
G1 X154.449 Y127.746 E11.25361
G1 X154.302 Y128.255 E11.27123
G1 X154.174 Y128.684 E11.28612
G1 X153.917 Y129.498 E11.31451
G1 X153.823 Y129.781 E11.32443
G1 X153.577 Y130.487 E11.34929
G1 X153.479 Y130.757 E11.35885
G1 X153.214 Y131.456 E11.38371
G1 X153.107 Y131.725 E11.39334
G1 X152.907 Y132.212 E11.41085
G1 X152.795 Y132.476 E11.42039
G1 X152.436 Y133.287 E11.44989
G1 X152.327 Y133.523 E11.45853
G1 X152.103 Y133.998 E11.476
G1 X151.826 Y134.567 E11.49705
G1 X151.446 Y135.32 E11.5251
G1 X151.318 Y135.566 E11.53433
G1 X151.05 Y136.064 E11.55313
G1 X150.904 Y136.327 E11.56314
G1 X150.572 Y136.904 E11.58528
G1 X150.422 Y137.156 E11.59503
G1 X150.074 Y137.724 E11.61719
G1 X149.929 Y137.954 E11.62623
G1 X149.416 Y138.745 E11.65759
G1 X149.26 Y138.979 E11.66694
G1 X148.926 Y139.463 E11.6865
G1 X148.655 Y139.844 E11.70205
G1 X148.258 Y140.394 E11.72462
G1 X148.068 Y140.649 E11.73519
G1 X147.653 Y141.189 E11.75784
G1 X147.476 Y141.413 E11.76734
G1 X147.052 Y141.935 E11.78971
